; generated by PrusaSlicer 2.2.0-alpha2+linux-x64 on 2020-03-05 at 21:08:34 UTC

; 

; external perimeters extrusion width = 0.60mm
; perimeters extrusion width = 0.50mm
; infill extrusion width = 0.50mm
; solid infill extrusion width = 0.50mm
; top infill extrusion width = 0.45mm
; first layer extrusion width = 0.42mm

M73 P0 R24
M73 Q0 S24
M201 X1000 Y1000 Z1000 E5000 ; sets maximum accelerations, mm/sec^2
M203 X200 Y200 Z12 E120 ; sets maximum feedrates, mm/sec
M204 P1250 R1250 T1250 ; sets acceleration (P, T) and retract acceleration (R), mm/sec^2
M205 X8.00 Y8.00 Z0.40 E1.50 ; sets the jerk limits, mm/sec
M205 S0 T0 ; sets the minimum extruding and travel feed rate, mm/sec
M107
M862.3 P "MK3S" ; printer model check
M862.1 P0.4 ; nozzle diameter check
M115 U3.8.1 ; tell printer latest fw version
G90 ; use absolute coordinates
M83 ; extruder relative mode
M104 S215 ; set extruder temp
M140 S60 ; set bed temp
M190 S60 ; wait for bed temp
M109 S215 ; wait for extruder temp
G28 W ; home all without mesh bed level
G80 ; mesh bed leveling
G1 Y-3.0 F1000.0 ; go outside print area
G92 E0.0
G1 X60.0 E9.0 F1000.0 ; intro line
M73 Q0 S23
M73 P0 R23
G1 X100.0 E12.5 F1000.0 ; intro line
G92 E0.0
M221 S95
G21 ; set units to millimeters
G90 ; use absolute coordinates
M83 ; use relative distances for extrusion
M900 K30 ; Filament gcode
;BEFORE_LAYER_CHANGE
G92 E0.0
;0.2


G1 E-0.80000 F2100.00000
G1 Z0.600 F10800.000
;AFTER_LAYER_CHANGE
;0.2
G1 X153.680 Y130.773
G1 Z0.200
G1 E0.80000 F2100.00000
M204 S1000
G1 F1200.000
G1 X153.008 Y130.877 E0.02130
G1 X113.980 Y130.877 E1.22371
G1 X111.793 Y130.784 E0.06861
G1 X109.159 Y130.423 E0.08338
G1 X106.528 Y129.780 E0.08492
G1 X104.435 Y129.051 E0.06950
G1 X101.993 Y127.932 E0.08420
G1 X99.665 Y126.555 E0.08482
G1 X97.491 Y124.940 E0.08492
G1 X95.513 Y123.123 E0.08422
G1 X94.029 Y121.475 E0.06952
G1 X92.429 Y119.318 E0.08420
G1 X91.063 Y117.011 E0.08408
G1 X90.119 Y115.005 E0.06953
G1 X89.210 Y112.478 E0.08419
G1 X88.565 Y109.850 E0.08482
G1 X88.199 Y107.190 E0.08420
G1 X88.107 Y104.975 E0.06952
G1 X88.248 Y102.293 E0.08419
G1 X88.667 Y99.645 E0.08408
G1 X89.218 Y97.497 E0.06953
G1 X90.129 Y94.971 E0.08419
G1 X91.296 Y92.555 E0.08411
G1 X92.444 Y90.659 E0.06950
G1 X94.046 Y88.504 E0.08420
G1 X95.861 Y86.529 E0.08410
G1 X97.508 Y85.045 E0.06952
G1 X99.665 Y83.445 E0.08420
G1 X101.043 Y82.591 E0.05085
G1 X102.476 Y81.822 E0.05098
G1 X103.954 Y81.146 E0.05096
G1 X105.472 Y80.563 E0.05098
G1 X107.026 Y80.076 E0.05109
G1 X108.605 Y79.688 E0.05096
G1 X110.205 Y79.400 E0.05097
G1 X111.824 Y79.213 E0.05109
G1 X113.977 Y79.123 E0.06758
G1 X152.987 Y79.123 E1.22313
G1 X153.583 Y79.200 E0.01882
G1 X154.136 Y79.421 E0.01870
G1 X154.618 Y79.774 E0.01870
G1 X154.996 Y80.235 E0.01870
G1 X155.980 Y81.943 E0.06183
G1 X157.329 Y84.591 E0.09318
G1 X159.058 Y88.761 E0.14153
G1 X160.001 Y91.670 E0.09587
G1 X161.045 Y96.023 E0.14038
G1 X161.677 Y100.454 E0.14033
G1 X161.870 Y103.507 E0.09592
G1 X161.801 Y107.971 E0.13997
G1 X161.516 Y111.006 E0.09556
G1 X161.038 Y114.014 E0.09551
G1 X159.997 Y118.345 E0.13967
G1 X159.048 Y121.264 E0.09623
G1 X157.335 Y125.396 E0.14027
G1 X155.982 Y128.055 E0.09353
G1 X155.025 Y129.718 E0.06017
G1 X154.705 Y130.139 E0.01657
G1 X154.298 Y130.481 E0.01668
G1 X153.734 Y130.747 E0.01954
G1 F8640.000
G1 X153.008 Y130.877 E-0.17022
G1 X150.454 Y130.877 E-0.58978
G1 E-0.04000 F2100.00000
G1 Z0.800 F10800.000
G1 X148.230 Y100.952
G1 Z0.200
G1 E0.80000 F2100.00000
G1 F1200.000
G1 X147.880 Y100.873 E0.01125
G1 X147.289 Y100.841 E0.01858
G1 X146.579 Y100.938 E0.02246
G1 X146.681 Y100.565 E0.01214
G1 X146.745 Y100.000 E0.01784
G1 X146.759 Y97.222 E0.08708
G1 X143.426 Y97.222 E0.10451
G1 X143.440 Y100.000 E0.08708
G1 X143.504 Y100.565 E0.01784
G1 X143.606 Y100.938 E0.01213
G1 X142.898 Y100.841 E0.02243
G1 X142.306 Y100.873 E0.01858
G1 X141.956 Y100.952 E0.01125
G1 X142.059 Y100.593 E0.01173
G1 X142.124 Y100.046 E0.01727
G1 X142.131 Y98.124 E0.06027
G1 X142.044 Y96.994 E0.03551
G1 X143.062 Y96.560 E0.03470
G1 X146.288 Y94.920 E0.11348
G1 X149.319 Y96.456 E0.10654
G1 X148.051 Y96.381 E0.03981
G1 X148.062 Y100.046 E0.11491
G1 X148.127 Y100.593 E0.01725
G1 X148.214 Y100.895 E0.00985
G1 F8640.000
G1 X147.880 Y100.873 E-0.07714
G1 X147.289 Y100.841 E-0.13680
G1 X146.579 Y100.938 E-0.16542
G1 X146.681 Y100.565 E-0.08939
G1 X146.745 Y100.000 E-0.13137
G1 X146.749 Y99.307 E-0.15988
G1 E-0.04000 F2100.00000
G1 Z0.800 F10800.000
G1 X147.971 Y106.205
G1 Z0.200
G1 E0.80000 F2100.00000
G1 F1200.000
G1 X151.540 Y106.363 E0.11201
G1 X151.531 Y109.425 E0.09601
G1 X151.464 Y109.994 E0.01796
G1 X151.325 Y110.520 E0.01707
G1 X151.165 Y110.890 E0.01265
G1 X151.019 Y111.141 E0.00910
G1 X150.699 Y111.540 E0.01603
G1 X150.395 Y111.801 E0.01256
G1 X150.164 Y111.952 E0.00864
G1 X149.921 Y112.079 E0.00862
G1 X149.543 Y112.224 E0.01269
G1 X149.009 Y112.346 E0.01718
G1 X148.439 Y112.395 E0.01792
G1 X144.525 Y112.397 E0.12272
G1 X144.525 Y113.471 E0.03370
G1 X142.803 Y113.545 E0.05405
G1 X142.075 Y113.544 E0.02282
G1 X142.132 Y114.658 E0.03497
G1 X142.117 Y116.048 E0.04359
G1 X142.047 Y116.568 E0.01646
G1 X141.893 Y117.129 E0.01825
G1 X141.932 Y117.478 E0.01099
G1 X142.087 Y117.696 E0.00841
G1 X143.428 Y117.697 E0.04205
G1 X143.605 Y117.462 E0.00921
G1 X143.663 Y117.228 E0.00758
G1 X143.626 Y116.914 E0.00989
G1 X143.525 Y116.724 E0.00676
G1 X143.501 Y116.064 E0.02072
G1 X143.548 Y115.699 E0.01155
G1 X143.615 Y115.372 E0.01047
G1 X143.751 Y114.927 E0.01456
G1 X143.930 Y114.514 E0.01412
G1 X144.156 Y114.136 E0.01382
G1 X144.425 Y113.804 E0.01341
G1 X144.641 Y113.600 E0.00930
G1 X144.876 Y113.420 E0.00930
G1 X145.239 Y113.212 E0.01311
G1 X145.522 Y113.097 E0.00956
G1 X145.932 Y112.985 E0.01333
G1 X146.237 Y112.937 E0.00970
G1 X146.670 Y112.913 E0.01357
G1 X148.444 Y112.915 E0.05565
G1 X149.021 Y112.973 E0.01817
G1 X149.446 Y113.076 E0.01372
G1 X149.836 Y113.227 E0.01311
G1 X150.097 Y113.368 E0.00931
G1 X150.440 Y113.615 E0.01323
G1 X150.817 Y114.010 E0.01713
G1 X151.054 Y114.371 E0.01354
G1 X151.240 Y114.765 E0.01364
G1 X151.407 Y115.312 E0.01794
G1 X151.468 Y115.631 E0.01020
G1 X151.514 Y116.133 E0.01579
G1 X151.461 Y116.723 E0.01860
G1 X151.261 Y117.215 E0.01665
G1 X151.461 Y117.879 E0.02173
G1 X151.527 Y118.407 E0.01668
G1 X151.541 Y121.488 E0.09660
G1 X148.050 Y121.329 E0.10956
G1 X148.053 Y118.840 E0.07804
G1 X148.071 Y118.368 E0.01482
G1 X148.141 Y117.868 E0.01583
G1 X148.288 Y117.346 E0.01700
G1 X148.252 Y116.948 E0.01251
G1 X148.068 Y116.670 E0.01046
G1 X146.780 Y116.670 E0.04040
G1 X146.763 Y116.690 E0.00084
G1 X146.574 Y116.991 E0.01115
G1 X146.519 Y117.319 E0.01043
G1 X146.551 Y117.522 E0.00643
G1 X146.661 Y117.725 E0.00724
G1 X146.672 Y118.385 E0.02070
G1 X146.589 Y118.891 E0.01607
G1 X146.506 Y119.206 E0.01021
G1 X146.355 Y119.626 E0.01400
G1 X146.159 Y120.018 E0.01376
G1 X145.916 Y120.375 E0.01353
G1 X145.627 Y120.690 E0.01341
G1 X145.298 Y120.950 E0.01314
G1 X145.034 Y121.108 E0.00964
G1 X144.531 Y121.311 E0.01700
G1 X144.230 Y121.384 E0.00971
G1 X143.797 Y121.442 E0.01371
G1 X141.891 Y121.451 E0.05976
G1 X141.451 Y121.430 E0.01382
G1 X141.023 Y121.363 E0.01357
G1 X140.726 Y121.285 E0.00963
G1 X140.215 Y121.072 E0.01736
G1 X139.764 Y120.764 E0.01711
G1 X139.543 Y120.555 E0.00954
G1 X139.277 Y120.228 E0.01321
G1 X139.010 Y119.750 E0.01719
G1 X138.897 Y119.463 E0.00967
G1 X138.778 Y119.047 E0.01355
G1 X138.718 Y118.733 E0.01004
G1 X138.671 Y118.219 E0.01619
G1 X138.715 Y117.893 E0.01031
G1 X138.716 Y117.637 E0.00802
G1 X138.923 Y117.237 E0.01413
G1 X138.724 Y116.556 E0.02224
G1 X138.659 Y116.019 E0.01696
G1 X138.648 Y112.867 E0.09883
G1 X140.442 Y112.953 E0.05632
G1 X141.097 Y113.015 E0.02063
G1 X141.068 Y112.397 E0.01940
G1 X138.676 Y112.397 E0.07498
G1 X138.538 Y108.633 E0.11810
G1 X140.358 Y108.654 E0.05707
G1 X140.914 Y108.720 E0.01754
G1 X141.198 Y108.796 E0.00921
G1 X141.115 Y108.515 E0.00916
G1 X141.051 Y107.982 E0.01683
G1 X141.038 Y106.204 E0.05577
G1 X144.531 Y106.364 E0.10962
G1 X144.514 Y108.025 E0.05206
G1 X144.448 Y108.543 E0.01639
G1 X144.375 Y108.779 E0.00773
G1 X144.557 Y108.736 E0.00587
G1 X145.095 Y108.664 E0.01699
G1 X145.616 Y108.643 E0.01635
G1 X147.971 Y108.638 E0.07385
G1 X147.971 Y106.265 E0.07441
G1 F8640.000
G1 X151.261 Y106.355 E-0.76000
G1 E-0.04000 F2100.00000
G1 Z0.800 F10800.000
G1 X144.150 Y106.724
G1 Z0.200
G1 E0.80000 F2100.00000
G1 F1200.000
G1 X144.137 Y107.999 E0.03996
G1 X144.078 Y108.463 E0.01468
G1 X143.893 Y109.063 E0.01967
G1 X141.669 Y109.063 E0.06974
G1 X141.486 Y108.439 E0.02038
G1 X141.427 Y107.955 E0.01528
G1 X141.416 Y106.599 E0.04255
G1 X144.090 Y106.722 E0.08394
G1 X144.546 Y106.671 F10800.000
G1 F8640.000
G1 X144.137 Y107.999 E-0.29510
G1 X144.078 Y108.463 E-0.10809
G1 X143.893 Y109.063 E-0.14488
G1 X142.975 Y109.063 E-0.21192
G1 E-0.04000 F2100.00000
G1 Z0.800 F10800.000
G1 X148.348 Y106.599
G1 Z0.200
G1 E0.80000 F2100.00000
G1 F1200.000
G1 X151.162 Y106.724 E0.08830
G1 X151.154 Y109.402 E0.08399
G1 X151.093 Y109.923 E0.01644
G1 X150.967 Y110.396 E0.01534
G1 X150.827 Y110.720 E0.01108
G1 X150.708 Y110.927 E0.00750
G1 X150.427 Y111.276 E0.01405
G1 X150.168 Y111.499 E0.01071
G1 X149.973 Y111.626 E0.00729
G1 X149.765 Y111.735 E0.00736
G1 X149.433 Y111.863 E0.01116
G1 X148.950 Y111.973 E0.01552
G1 X148.423 Y112.018 E0.01659
G1 X144.148 Y112.020 E0.13404
G1 X144.148 Y113.110 E0.03419
G1 X142.795 Y113.168 E0.04245
G1 X141.482 Y113.165 E0.04119
G1 X141.427 Y112.020 E0.03596
G1 X139.040 Y112.020 E0.07486
G1 X138.930 Y109.014 E0.09430
G1 X140.334 Y109.031 E0.04403
G1 X140.842 Y109.091 E0.01606
G1 X141.313 Y109.217 E0.01527
G1 X144.156 Y109.217 E0.08916
G1 X144.625 Y109.108 E0.01510
G1 X145.127 Y109.041 E0.01588
G1 X145.624 Y109.020 E0.01557
G1 X148.085 Y109.015 E0.07716
G1 X148.225 Y108.990 E0.00448
G1 X148.290 Y108.949 E0.00239
G1 X148.329 Y108.874 E0.00266
G1 X148.348 Y108.711 E0.00514
G1 X148.348 Y106.659 E0.06434
G1 X148.361 Y106.200 F10800.000
G1 F8640.000
G1 X151.162 Y106.724 E-0.64983
G1 X151.160 Y107.201 E-0.11017
G1 E-0.04000 F2100.00000
G1 Z0.800 F10800.000
G1 X150.893 Y117.121
G1 Z0.200
G1 E0.80000 F2100.00000
G1 F1200.000
G1 X148.646 Y117.121 E0.07044
G1 X148.619 Y116.825 E0.00934
G1 X148.356 Y116.405 E0.01553
G1 X148.240 Y116.317 E0.00458
G1 X148.101 Y116.293 E0.00442
G1 X146.639 Y116.300 E0.04584
G1 X146.546 Y116.362 E0.00349
G1 X146.453 Y116.473 E0.00456
G1 X146.320 Y116.703 E0.00832
G1 X146.217 Y116.836 E0.00526
G1 X146.171 Y117.113 E0.00882
G1 X144.029 Y117.113 E0.06716
G1 X143.992 Y116.800 E0.00990
G1 X143.898 Y116.624 E0.00626
G1 X143.879 Y116.081 E0.01701
G1 X143.981 Y115.465 E0.01960
G1 X144.105 Y115.058 E0.01333
G1 X144.266 Y114.687 E0.01269
G1 X144.466 Y114.352 E0.01220
G1 X144.703 Y114.061 E0.01179
G1 X144.886 Y113.887 E0.00791
G1 X145.085 Y113.734 E0.00788
G1 X145.405 Y113.552 E0.01155
G1 X145.643 Y113.454 E0.00807
G1 X146.011 Y113.354 E0.01195
G1 X146.277 Y113.312 E0.00845
G1 X146.680 Y113.290 E0.01265
G1 X148.425 Y113.292 E0.05473
G1 X148.958 Y113.346 E0.01678
G1 X149.333 Y113.436 E0.01212
G1 X149.678 Y113.570 E0.01158
G1 X149.897 Y113.688 E0.00781
G1 X150.191 Y113.900 E0.01136
G1 X150.520 Y114.246 E0.01497
G1 X150.724 Y114.556 E0.01164
G1 X150.887 Y114.901 E0.01196
G1 X151.040 Y115.403 E0.01645
G1 X151.094 Y115.684 E0.00899
G1 X151.136 Y116.133 E0.01413
G1 X151.090 Y116.633 E0.01576
G1 X150.915 Y117.066 E0.01462
G1 X150.860 Y117.520 F10800.000
G1 X150.907 Y117.347
G1 F1200.000
G1 X151.091 Y117.957 E0.01998
G1 X151.150 Y118.431 E0.01498
G1 X151.162 Y121.093 E0.08346
G1 X148.428 Y120.969 E0.08582
G1 X148.430 Y118.847 E0.06652
G1 X148.447 Y118.401 E0.01400
G1 X148.511 Y117.945 E0.01444
G1 X148.679 Y117.347 E0.01948
G1 X150.847 Y117.347 E0.06799
G1 X151.292 Y117.238 F10800.000
G1 F8640.000
G1 X151.091 Y117.957 E-0.15173
G1 X151.150 Y118.431 E-0.11028
G1 X151.160 Y120.588 E-0.49799
G1 E-0.04000 F2100.00000
G1 Z0.800 F10800.000
G1 X139.308 Y117.314
G1 Z0.200
G1 E0.80000 F2100.00000
G1 F1200.000
G1 X141.536 Y117.333 E0.06986
G1 X141.567 Y117.610 E0.00875
G1 X141.752 Y117.890 E0.01051
G1 X141.860 Y118.006 E0.00496
G1 X141.954 Y118.057 E0.00335
G1 X142.053 Y118.073 E0.00314
G1 X143.563 Y118.064 E0.04734
G1 X143.700 Y117.963 E0.00535
G1 X143.952 Y117.628 E0.01317
G1 X144.028 Y117.322 E0.00988
G1 X146.141 Y117.341 E0.06624
G1 X146.189 Y117.644 E0.00964
G1 X146.285 Y117.823 E0.00638
G1 X146.294 Y118.358 E0.01675
G1 X146.220 Y118.812 E0.01444
G1 X146.146 Y119.093 E0.00913
G1 X146.008 Y119.477 E0.01279
G1 X145.833 Y119.827 E0.01227
G1 X145.620 Y120.140 E0.01187
G1 X145.369 Y120.413 E0.01161
G1 X145.084 Y120.639 E0.01142
G1 X144.866 Y120.769 E0.00794
G1 X144.415 Y120.951 E0.01524
G1 X144.161 Y121.013 E0.00822
G1 X143.771 Y121.065 E0.01232
G1 X141.899 Y121.074 E0.05870
G1 X141.489 Y121.055 E0.01286
G1 X141.101 Y120.994 E0.01233
G1 X140.848 Y120.927 E0.00821
G1 X140.396 Y120.738 E0.01535
G1 X140.001 Y120.470 E0.01497
G1 X139.820 Y120.298 E0.00782
G1 X139.591 Y120.016 E0.01141
G1 X139.351 Y119.588 E0.01538
G1 X139.254 Y119.342 E0.00829
G1 X139.145 Y118.960 E0.01245
G1 X139.092 Y118.680 E0.00893
G1 X139.050 Y118.227 E0.01427
G1 X139.092 Y117.919 E0.00975
G1 X139.093 Y117.729 E0.00593
G1 X139.280 Y117.367 E0.01279
G1 X139.356 Y116.917 F10800.000
G1 X139.280 Y117.105
G1 F1200.000
G1 X139.095 Y116.480 E0.02044
G1 X139.036 Y115.994 E0.01535
G1 X139.025 Y113.263 E0.08564
G1 X140.415 Y113.329 E0.04364
G1 X141.693 Y113.449 E0.04022
G1 X141.755 Y114.665 E0.03817
G1 X141.741 Y116.020 E0.04249
G1 X141.677 Y116.492 E0.01493
G1 X141.508 Y117.105 E0.01994
G1 X139.340 Y117.105 E0.06797
G1 X138.895 Y117.214 F10800.000
G1 F8640.000
G1 X139.095 Y116.480 E-0.15507
G1 X139.036 Y115.994 E-0.11304
G1 X139.027 Y113.864 E-0.49189
G1 E-0.04000 F2100.00000
G1 Z0.800 F10800.000
G1 X151.487 Y87.680
G1 Z0.200
G1 E0.80000 F2100.00000
G1 F1200.000
G1 X151.637 Y91.740 E0.12739
G1 X150.223 Y92.305 E0.04775
G1 X149.681 Y92.469 E0.01776
G1 X150.068 Y92.637 E0.01323
G1 X151.636 Y93.508 E0.05623
G1 X151.558 Y95.416 E0.05989
G1 X151.508 Y95.918 E0.01580
G1 X151.379 Y96.756 E0.02659
G1 X151.500 Y97.692 E0.02959
G1 X151.532 Y98.187 E0.01555
G1 X151.527 Y100.066 E0.05893
G1 X151.462 Y100.605 E0.01701
G1 X151.266 Y101.272 E0.02181
G1 X151.461 Y101.908 E0.02085
G1 X151.527 Y102.429 E0.01647
G1 X151.542 Y104.566 E0.06698
G1 X138.644 Y104.566 E0.40443
G1 X138.659 Y102.429 E0.06698
G1 X138.725 Y101.908 E0.01647
G1 X138.920 Y101.272 E0.02085
G1 X138.724 Y100.605 E0.02181
G1 X138.659 Y100.067 E0.01700
G1 X138.646 Y96.538 E0.11066
G1 X139.889 Y96.486 E0.03901
G1 X140.874 Y96.474 E0.03090
G1 X141.135 Y96.487 E0.00818
G1 X141.018 Y95.419 E0.03370
G1 X140.940 Y93.505 E0.06005
G1 X142.504 Y92.638 E0.05607
G1 X142.895 Y92.469 E0.01335
G1 X142.353 Y92.305 E0.01776
G1 X140.939 Y91.740 E0.04776
G1 X141.090 Y87.680 E0.12738
G1 X146.288 Y89.921 E0.17747
G1 X151.432 Y87.704 E0.17563
G1 F8640.000
G1 X151.599 Y90.991 E-0.76000
G1 E-0.04000 F2100.00000
G1 Z0.800 F10800.000
G1 X141.658 Y96.893
G1 Z0.200
G1 E0.80000 F2100.00000
G1 F1200.000
G1 X141.753 Y98.137 E0.03914
G1 X141.747 Y100.023 E0.05912
G1 X141.688 Y100.518 E0.01563
G1 X141.506 Y101.153 E0.02070
G1 X139.278 Y101.153 E0.06988
G1 X139.095 Y100.529 E0.02038
G1 X139.036 Y100.043 E0.01534
G1 X139.024 Y96.899 E0.09858
G1 X139.899 Y96.863 E0.02746
G1 X140.867 Y96.851 E0.03034
G1 X141.598 Y96.890 E0.02297
G1 X142.058 Y96.875 F10800.000
G1 F8640.000
G1 X141.753 Y98.137 E-0.29034
G1 X141.747 Y100.023 E-0.43537
G1 X141.730 Y100.170 E-0.03429
G1 E-0.04000 F2100.00000
G1 Z0.800 F10800.000
G1 X143.805 Y97.600
G1 Z0.200
G1 E0.80000 F2100.00000
G1 F1200.000
G1 X146.380 Y97.600 E0.08074
G1 X146.368 Y99.977 E0.07455
G1 X146.310 Y100.493 E0.01629
G1 X146.129 Y101.153 E0.02142
G1 X144.056 Y101.153 E0.06502
G1 X143.876 Y100.493 E0.02142
G1 X143.817 Y99.977 E0.01629
G1 X143.805 Y97.660 E0.07267
G1 X143.802 Y97.200 F10800.000
G1 F8640.000
G1 X146.380 Y97.600 E-0.59469
G1 X146.377 Y98.315 E-0.16531
G1 E-0.04000 F2100.00000
G1 Z0.800 F10800.000
G1 X148.428 Y96.781
G1 Z0.200
G1 E0.80000 F2100.00000
G1 F1200.000
G1 X149.821 Y96.864 E0.04375
