; generated by PrusaSlicer 2.2.0+linux-x64 on 2020-09-29 at 16:49:11 UTC

; 

; external perimeters extrusion width = 0.45mm
; perimeters extrusion width = 0.45mm
; infill extrusion width = 0.45mm
; solid infill extrusion width = 0.45mm
; top infill extrusion width = 0.40mm
; first layer extrusion width = 0.42mm

M73 P0 R40
M73 Q0 S40
M201 X1000 Y1000 Z200 E5000 ; sets maximum accelerations, mm/sec^2
M203 X200 Y200 Z12 E120 ; sets maximum feedrates, mm/sec
M204 P1250 R1250 T1250 ; sets acceleration (P, T) and retract acceleration (R), mm/sec^2
M205 X8.00 Y8.00 Z0.40 E4.50 ; sets the jerk limits, mm/sec
M205 S0 T0 ; sets the minimum extruding and travel feed rate, mm/sec
M107
M862.3 P "MK3S" ; printer model check
M862.1 P0.4 ; nozzle diameter check
M115 U3.9.0 ; tell printer latest fw version
G90 ; use absolute coordinates
M83 ; extruder relative mode
M104 S215 ; set extruder temp
M140 S60 ; set bed temp
M190 S60 ; wait for bed temp
M109 S215 ; wait for extruder temp
G28 W ; home all without mesh bed level
G80 ; mesh bed leveling
G1 Y-3.0 F1000.0 ; go outside print area
G92 E0.0
G1 X60.0 E9.0 F1000.0 ; intro line
M73 Q0 S40
M73 P0 R40
G1 X100.0 E12.5 F1000.0 ; intro line
G92 E0.0
M221 S95

; Don't change E values below. Excessive value can damage the printer.

M907 E538 ; set extruder motor current
G21 ; set units to millimeters
G90 ; use absolute coordinates
M83 ; use relative distances for extrusion
M900 K0.05 ; Filament gcode LA 1.5
M900 K30 ; Filament gcode LA 1.0
;BEFORE_LAYER_CHANGE
G92 E0.0
;0.2


G1 E-0.80000 F2100.00000
G1 Z0.600 F10800.000
;AFTER_LAYER_CHANGE
;0.2
G1 X69.457 Y92.460
G1 Z0.200
G1 E0.80000 F2100.00000
M204 S1000
G1 F1200.000
G1 X69.968 Y92.097 E0.01965
G1 X70.559 Y91.880 E0.01977
G1 X71.076 Y91.823 E0.01631
G1 X178.927 Y91.823 E3.38159
G1 X179.672 Y91.944 E0.02367
G1 X180.345 Y92.295 E0.02378
G1 X180.871 Y92.836 E0.02367
G1 X181.200 Y93.516 E0.02367
G1 X181.927 Y97.828 E0.13714
G1 X182.261 Y101.360 E0.11122
G1 X182.350 Y103.225 E0.05855
G1 X182.349 Y106.803 E0.11218
G1 X182.126 Y110.363 E0.11183
G1 X181.920 Y112.228 E0.05885
G1 X181.358 Y115.763 E0.11223
G1 X181.142 Y116.654 E0.02875
G1 X180.767 Y117.301 E0.02343
G1 X180.174 Y117.821 E0.02473
G1 X179.441 Y118.120 E0.02484
G1 X178.923 Y118.177 E0.01631
G1 X71.038 Y118.177 E3.38266
G1 X70.259 Y118.032 E0.02484
G1 X69.574 Y117.642 E0.02473
G1 X69.054 Y117.049 E0.02473
G1 X68.756 Y116.315 E0.02484
G1 X68.077 Y112.206 E0.13059
G1 X67.737 Y108.613 E0.11313
G1 X67.623 Y104.999 E0.11338
G1 X67.738 Y101.370 E0.11385
G1 X68.078 Y97.789 E0.11278
G1 X68.798 Y93.522 E0.13568
G1 X69.056 Y92.947 E0.01977
G1 X69.419 Y92.507 E0.01789
G1 F8640.000
G1 X69.968 Y92.097 E-0.15811
G1 X70.559 Y91.880 E-0.14557
G1 X71.077 Y91.823 E-0.12012
G1 X72.533 Y91.823 E-0.33620
G1 E-0.04000 F2100.00000
G1 Z0.800 F10800.000
G1 X155.598 Y104.044
G1 Z0.200
G1 E0.80000 F2100.00000
G1 F1200.000
G1 X153.420 Y104.046 E0.06830
G1 X153.448 Y104.841 E0.02492
G1 X153.288 Y104.894 E0.00530
G1 X152.382 Y103.600 E0.04955
G1 X153.298 Y102.291 E0.05010
G1 X154.684 Y102.401 E0.04358
G1 X157.364 Y102.415 E0.08402
G1 X157.364 Y104.042 E0.05101
G1 X155.658 Y104.044 E0.05348
G1 F8640.000
G1 X153.420 Y104.046 E-0.51683
G1 X153.448 Y104.841 E-0.18355
G1 X153.288 Y104.894 E-0.03903
G1 X153.237 Y104.821 E-0.02059
G1 E-0.04000 F2100.00000
G1 Z0.800 F10800.000
G1 X142.921 Y104.483
G1 Z0.200
G1 E0.80000 F2100.00000
G1 F1200.000
G1 X142.938 Y105.005 E0.01637
G1 X142.901 Y105.775 E0.02419
G1 X142.792 Y106.544 E0.02433
G1 X142.611 Y107.298 E0.02433
G1 X142.361 Y108.028 E0.02419
G1 X142.153 Y108.507 E0.01637
G1 X141.918 Y108.968 E0.01623
G1 X141.653 Y109.418 E0.01637
G1 X141.212 Y110.045 E0.02404
G1 X140.879 Y110.448 E0.01637
G1 X140.525 Y110.825 E0.01622
G1 X140.148 Y111.179 E0.01622
G1 X139.749 Y111.509 E0.01623
G1 X139.330 Y111.813 E0.01623
G1 X138.893 Y112.090 E0.01622
G1 X138.440 Y112.340 E0.01623
G1 X137.972 Y112.560 E0.01622
G1 X137.490 Y112.750 E0.01623
G1 X136.998 Y112.910 E0.01623
G1 X136.497 Y113.039 E0.01622
G1 X135.989 Y113.136 E0.01623
G1 X135.471 Y113.201 E0.01637
G1 X134.715 Y113.237 E0.02371
G1 X115.037 Y113.233 E0.61701
G1 X114.268 Y113.173 E0.02419
G1 X113.503 Y113.039 E0.02434
G1 X112.759 Y112.836 E0.02419
G1 X112.268 Y112.659 E0.01637
G1 X111.788 Y112.452 E0.01637
G1 X111.107 Y112.091 E0.02419
G1 X110.458 Y111.664 E0.02433
G1 X109.852 Y111.179 E0.02433
G1 X109.295 Y110.639 E0.02433
G1 X108.791 Y110.049 E0.02434
G1 X108.347 Y109.418 E0.02419
G1 X108.082 Y108.968 E0.01637
G1 X107.844 Y108.503 E0.01637
G1 X107.549 Y107.790 E0.02419
G1 X107.321 Y107.049 E0.02433
G1 X107.164 Y106.289 E0.02433
G1 X107.079 Y105.522 E0.02419
G1 X107.062 Y104.995 E0.01652
G1 X107.099 Y104.225 E0.02419
G1 X107.208 Y103.456 E0.02433
G1 X107.388 Y102.706 E0.02419
G1 X107.551 Y102.205 E0.01652
G1 X107.846 Y101.492 E0.02419
G1 X108.209 Y100.807 E0.02433
G1 X108.633 Y100.162 E0.02419
G1 X108.956 Y99.746 E0.01652
G1 X109.475 Y99.175 E0.02419
G1 X110.046 Y98.656 E0.02419
G1 X110.462 Y98.333 E0.01652
G1 X111.107 Y97.909 E0.02419
G1 X111.792 Y97.546 E0.02433
G1 X112.505 Y97.251 E0.02419
G1 X113.006 Y97.088 E0.01651
G1 X113.756 Y96.908 E0.02419
G1 X114.525 Y96.799 E0.02433
G1 X115.285 Y96.763 E0.02385
G1 X134.963 Y96.767 E0.61701
G1 X135.732 Y96.827 E0.02419
G1 X136.497 Y96.961 E0.02434
G1 X137.241 Y97.164 E0.02419
G1 X137.737 Y97.343 E0.01651
G1 X138.440 Y97.660 E0.02419
G1 X139.114 Y98.045 E0.02433
G1 X139.749 Y98.491 E0.02434
G1 X140.339 Y98.995 E0.02433
G1 X140.879 Y99.552 E0.02433
G1 X141.362 Y100.154 E0.02419
G1 X141.655 Y100.586 E0.01637
G1 X141.921 Y101.036 E0.01637
G1 X142.260 Y101.728 E0.02419
G1 X142.535 Y102.454 E0.02433
G1 X142.739 Y103.203 E0.02433
G1 X142.872 Y103.963 E0.02419
G1 X142.915 Y104.423 E0.01449
G1 X142.540 Y104.459 F10800.000
G1 F1200.000
G1 X142.560 Y105.002 E0.01704
G1 X142.525 Y105.740 E0.02317
G1 X142.421 Y106.473 E0.02322
G1 X142.248 Y107.193 E0.02322
G1 X142.009 Y107.892 E0.02317
G1 X141.812 Y108.347 E0.01553
G1 X141.588 Y108.787 E0.01548
G1 X141.336 Y109.213 E0.01553
G1 X140.912 Y109.816 E0.02311
G1 X140.596 Y110.198 E0.01554
G1 X140.258 Y110.558 E0.01548
G1 X139.898 Y110.896 E0.01548
G1 X139.518 Y111.211 E0.01548
G1 X139.118 Y111.501 E0.01548
G1 X138.701 Y111.766 E0.01548
G1 X138.268 Y112.003 E0.01548
G1 X137.822 Y112.214 E0.01548
G1 X137.363 Y112.395 E0.01548
G1 X136.893 Y112.548 E0.01548
G1 X136.415 Y112.671 E0.01548
G1 X135.930 Y112.763 E0.01548
G1 X135.438 Y112.825 E0.01553
G1 X134.707 Y112.860 E0.02296
G1 X115.051 Y112.856 E0.61627
G1 X114.315 Y112.798 E0.02317
G1 X113.585 Y112.671 E0.02322
G1 X112.873 Y112.476 E0.02317
G1 X112.407 Y112.308 E0.01553
G1 X111.952 Y112.111 E0.01554
G1 X111.299 Y111.766 E0.02317
G1 X110.680 Y111.359 E0.02322
G1 X110.102 Y110.896 E0.02322
G1 X109.570 Y110.381 E0.02322
G1 X109.089 Y109.818 E0.02322
G1 X108.664 Y109.213 E0.02317
G1 X108.412 Y108.787 E0.01553
G1 X108.187 Y108.345 E0.01553
G1 X107.904 Y107.663 E0.02317
G1 X107.687 Y106.955 E0.02322
G1 X107.537 Y106.230 E0.02322
G1 X107.455 Y105.495 E0.02317
G1 X107.440 Y104.998 E0.01559
G1 X107.475 Y104.260 E0.02317
G1 X107.579 Y103.527 E0.02322
G1 X107.751 Y102.809 E0.02317
G1 X107.905 Y102.336 E0.01559
G1 X108.188 Y101.653 E0.02317
G1 X108.534 Y100.999 E0.02322
G1 X108.940 Y100.381 E0.02316
G1 X109.245 Y99.988 E0.01559
G1 X109.742 Y99.442 E0.02317
G1 X110.288 Y98.945 E0.02317
G1 X110.681 Y98.640 E0.01559
G1 X111.299 Y98.234 E0.02317
G1 X111.953 Y97.888 E0.02322
G1 X112.636 Y97.605 E0.02317
G1 X113.109 Y97.451 E0.01559
G1 X113.827 Y97.279 E0.02317
G1 X114.560 Y97.175 E0.02322
G1 X115.293 Y97.140 E0.02301
G1 X134.949 Y97.144 E0.61627
G1 X135.685 Y97.202 E0.02317
G1 X136.415 Y97.329 E0.02322
G1 X137.127 Y97.524 E0.02317
G1 X137.595 Y97.692 E0.01558
G1 X138.268 Y97.996 E0.02317
G1 X138.912 Y98.363 E0.02322
G1 X139.518 Y98.789 E0.02322
G1 X140.081 Y99.270 E0.02322
G1 X140.596 Y99.802 E0.02322
G1 X141.058 Y100.379 E0.02317
G1 X141.336 Y100.788 E0.01553
G1 X141.589 Y101.215 E0.01553
G1 X141.914 Y101.878 E0.02317
G1 X142.176 Y102.571 E0.02322
G1 X142.371 Y103.285 E0.02322
G1 X142.498 Y104.013 E0.02317
G1 X142.534 Y104.399 E0.01214
G1 X142.900 Y104.633 F10800.000
G1 F8640.000
G1 X142.560 Y105.002 E-0.13933
G1 X142.525 Y105.740 E-0.17061
G1 X142.421 Y106.473 E-0.17099
G1 X142.248 Y107.193 E-0.17098
G1 X142.097 Y107.636 E-0.10808
G1 E-0.04000 F2100.00000
G1 Z0.800 F10800.000
G1 X146.656 Y106.496
G1 Z0.200
G1 E0.80000 F2100.00000
G1 F1200.000
G1 X148.695 Y103.587 E0.11137
G1 X146.323 Y100.218 E0.12919
G1 X146.764 Y99.369 E0.02999
G1 X149.258 Y99.369 E0.07820
G1 X150.220 Y100.742 E0.05256
G1 X150.548 Y101.332 E0.02117
G1 X150.869 Y100.744 E0.02101
G1 X151.816 Y99.366 E0.05243
G1 X153.084 Y99.380 E0.03976
G1 X153.580 Y99.448 E0.01570
G1 X154.039 Y99.599 E0.01512
G1 X154.568 Y99.445 E0.01728
G1 X155.109 Y99.380 E0.01707
G1 X160.552 Y99.369 E0.17067
G1 X160.552 Y104.489 E0.16053
G1 X161.394 Y104.489 E0.02641
G1 X161.394 Y99.369 E0.16053
G1 X164.440 Y99.369 E0.09551
G1 X164.440 Y104.489 E0.16053
G1 X165.012 Y104.489 E0.01791
G1 X164.914 Y104.306 E0.00652
G1 X164.742 Y103.729 E0.01885
G1 X164.690 Y103.366 E0.01152
G1 X164.674 Y103.002 E0.01140
G1 X164.699 Y102.510 E0.01547
G1 X164.753 Y102.145 E0.01157
G1 X164.837 Y101.795 E0.01128
G1 X164.953 Y101.458 E0.01116
G1 X165.101 Y101.137 E0.01109
G1 X165.280 Y100.834 E0.01105
G1 X165.490 Y100.551 E0.01105
G1 X165.733 Y100.286 E0.01125
G1 X166.084 Y99.982 E0.01457
G1 X166.382 Y99.779 E0.01130
G1 X166.695 Y99.608 E0.01120
G1 X167.025 Y99.466 E0.01127
G1 X167.371 Y99.353 E0.01140
G1 X167.730 Y99.269 E0.01158
G1 X168.106 Y99.212 E0.01191
G1 X168.622 Y99.178 E0.01621
G1 X169.301 Y99.201 E0.02130
G1 X170.010 Y99.323 E0.02258
G1 X170.406 Y99.445 E0.01297
G1 X170.689 Y99.561 E0.00959
G1 X170.960 Y99.700 E0.00954
G1 X171.288 Y99.910 E0.01222
G1 X171.528 Y100.100 E0.00959
G1 X171.807 Y100.372 E0.01223
G1 X172.053 Y100.675 E0.01222
G1 X172.219 Y100.930 E0.00957
G1 X172.399 Y101.276 E0.01223
G1 X172.518 Y101.570 E0.00993
G1 X172.821 Y102.656 E0.03535
G1 X170.131 Y103.942 E0.09349
G1 X169.757 Y102.812 E0.03734
G1 X169.606 Y102.566 E0.00903
G1 X169.406 Y102.393 E0.00831
G1 X169.129 Y102.276 E0.00942
G1 X168.927 Y102.239 E0.00643
G1 X168.646 Y102.225 E0.00884
G1 X168.450 Y102.243 E0.00616
G1 X168.186 Y102.333 E0.00873
G1 X168.100 Y102.395 E0.00336
G1 X167.968 Y102.569 E0.00684
G1 X167.921 Y102.734 E0.00538
G1 X167.919 Y102.983 E0.00781
G1 X168.063 Y103.197 E0.00809
G1 X168.227 Y103.346 E0.00693
G1 X168.471 Y103.515 E0.00929
G1 X170.173 Y104.393 E0.06007
G1 X170.771 Y104.761 E0.02199
G1 X171.267 Y105.131 E0.01941
G1 X171.667 Y105.521 E0.01753
G1 X172.008 Y106.008 E0.01864
G1 X172.222 Y106.484 E0.01635
G1 X172.363 Y107.058 E0.01854
G1 X172.399 Y107.502 E0.01395
G1 X172.387 Y107.925 E0.01327
G1 X172.344 Y108.260 E0.01060
G1 X172.243 Y108.678 E0.01349
G1 X172.090 Y109.076 E0.01336
G1 X171.936 Y109.365 E0.01028
G1 X171.753 Y109.638 E0.01029
G1 X171.477 Y109.958 E0.01327
G1 X171.229 Y110.188 E0.01059
G1 X170.885 Y110.443 E0.01342
G1 X170.594 Y110.613 E0.01058
G1 X170.201 Y110.789 E0.01351
G1 X169.876 Y110.895 E0.01070
G1 X169.444 Y110.991 E0.01387
G1 X169.096 Y111.035 E0.01102
G1 X168.626 Y111.056 E0.01476
G1 X167.971 Y111.020 E0.02055
G1 X167.353 Y110.908 E0.01969
G1 X166.780 Y110.715 E0.01896
G1 X166.318 Y110.477 E0.01631
G1 X165.848 Y110.126 E0.01838
G1 X165.457 Y109.696 E0.01822
G1 X165.190 Y109.264 E0.01593
G1 X164.770 Y108.238 E0.03477
G1 X167.289 Y106.946 E0.08879
G1 X167.775 Y107.660 E0.02707
G1 X167.906 Y107.817 E0.00642
G1 X168.039 Y107.933 E0.00554
G1 X168.156 Y108.003 E0.00425
G1 X168.283 Y108.047 E0.00423
G1 X168.440 Y108.069 E0.00499
G1 X168.656 Y108.064 E0.00676
G1 X168.826 Y108.031 E0.00544
G1 X168.923 Y107.994 E0.00325
G1 X169.047 Y107.901 E0.00485
G1 X169.114 Y107.770 E0.00464
G1 X169.127 Y107.682 E0.00279
G1 X169.104 Y107.561 E0.00384
G1 X168.985 Y107.399 E0.00630
G1 X168.673 Y107.141 E0.01269
G1 X168.234 Y106.883 E0.01597
G1 X167.246 Y106.414 E0.03430
G1 X166.633 Y106.082 E0.02186
G1 X166.029 Y105.683 E0.02270
G1 X165.566 Y105.289 E0.01905
G1 X165.566 Y107.343 E0.06440
G1 X164.440 Y107.343 E0.03530
G1 X164.440 Y109.775 E0.07625
G1 X161.394 Y109.775 E0.09551
G1 X161.394 Y107.343 E0.07625
G1 X160.552 Y107.343 E0.02641
G1 X160.552 Y110.863 E0.11037
G1 X153.437 Y110.863 E0.22309
G1 X153.437 Y107.945 E0.09150
G1 X157.364 Y107.945 E0.12313
G1 X157.364 Y107.023 E0.02891
G1 X155.166 Y107.012 E0.06890
G1 X154.604 Y106.948 E0.01775
G1 X154.376 Y106.886 E0.00740
G1 X153.230 Y107.264 E0.03785
G1 X152.735 Y107.332 E0.01565
G1 X151.462 Y107.347 E0.03992
G1 X150.766 Y106.293 E0.03962
G1 X150.533 Y105.822 E0.01647
G1 X150.295 Y106.302 E0.01682
G1 X149.602 Y107.343 E0.03921
G1 X147.097 Y107.343 E0.07854
G1 X146.684 Y106.549 E0.02808
G1 X147.097 Y106.525 F10800.000
G1 F1200.000
G1 X149.156 Y103.587 E0.11250
G1 X146.763 Y100.189 E0.13031
G1 X146.993 Y99.746 E0.01562
G1 X149.062 Y99.746 E0.06486
G1 X149.900 Y100.943 E0.04579
G1 X150.114 Y101.328 E0.01383
G1 X150.288 Y101.826 E0.01653
G1 X150.560 Y102.260 E0.01606
G1 X150.809 Y101.832 E0.01553
G1 X150.980 Y101.327 E0.01672
G1 X151.191 Y100.941 E0.01378
G1 X152.013 Y99.745 E0.04551
G1 X153.057 Y99.757 E0.03272
G1 X153.495 Y99.817 E0.01389
G1 X154.032 Y99.993 E0.01770
G1 X154.644 Y99.816 E0.01997
G1 X155.133 Y99.757 E0.01547
G1 X160.175 Y99.746 E0.15807
G1 X160.175 Y110.486 E0.33674
G1 X153.814 Y110.486 E0.19944
G1 X153.814 Y108.322 E0.06785
G1 X157.741 Y108.322 E0.12313
G1 X157.741 Y106.646 E0.05255
G1 X155.192 Y106.635 E0.07993
G1 X154.675 Y106.577 E0.01630
G1 X154.046 Y106.406 E0.02044
G1 X153.913 Y105.805 E0.01929
G1 X153.842 Y105.316 E0.01547
G1 X153.810 Y104.423 E0.02804
G1 X157.741 Y104.419 E0.12323
G1 X157.741 Y102.038 E0.07464
G1 X155.203 Y102.037 E0.07958
G1 X154.704 Y102.024 E0.01565
G1 X153.844 Y101.956 E0.02704
G1 X153.980 Y101.113 E0.02676
G1 X154.018 Y100.576 E0.01690
G1 X153.857 Y100.518 E0.00539
G1 X153.763 Y100.650 E0.00507
G1 X153.548 Y101.047 E0.01415
G1 X153.352 Y101.486 E0.01508
G1 X153.105 Y101.910 E0.01538
G1 X151.921 Y103.600 E0.06470
G1 X153.056 Y105.221 E0.06204
G1 X153.301 Y105.623 E0.01479
G1 X153.792 Y106.682 E0.03658
G1 X153.144 Y106.895 E0.02137
G1 X152.707 Y106.955 E0.01384
G1 X151.663 Y106.968 E0.03273
G1 X151.093 Y106.105 E0.03242
G1 X150.901 Y105.715 E0.01362
G1 X150.776 Y105.307 E0.01338
G1 X150.518 Y104.909 E0.01488
G1 X150.272 Y105.329 E0.01526
G1 X150.160 Y105.725 E0.01289
G1 X149.968 Y106.113 E0.01359
G1 X149.400 Y106.966 E0.03213
G1 X147.326 Y106.966 E0.06503
G1 X147.124 Y106.578 E0.01372
G1 X146.740 Y106.343 F10800.000
G1 F8640.000
G1 X148.974 Y103.855 E-0.76000
G1 E-0.04000 F2100.00000
G1 Z0.800 F10800.000
G1 X160.645 Y106.578
G1 Z0.200
G1 E0.80000 F2100.00000
G1 F1200.000
G1 X160.645 Y104.866 E0.05367
G1 X161.771 Y104.866 E0.03530
G1 X161.771 Y99.746 E0.16053
G1 X164.063 Y99.746 E0.07186
G1 X164.063 Y104.866 E0.16053
G1 X165.189 Y104.866 E0.03530
G1 X165.189 Y106.966 E0.06584
G1 X164.063 Y106.966 E0.03530
G1 X164.063 Y109.398 E0.07625
G1 X161.771 Y109.398 E0.07186
G1 X161.771 Y106.966 E0.07625
G1 X160.645 Y106.966 E0.03530
G1 X160.645 Y106.638 E0.01029
G1 X160.248 Y106.534 F10800.000
G1 F8640.000
G1 X160.645 Y104.866 E-0.40908
G1 X161.771 Y104.866 E-0.26000
G1 X161.771 Y104.472 E-0.09092
G1 E-0.04000 F2100.00000
G1 Z0.800 F10800.000
G1 X165.250 Y108.415
G1 Z0.200
G1 E0.80000 F2100.00000
G1 F1200.000
G1 X167.165 Y107.434 E0.06748
G1 X167.473 Y107.888 E0.01722
G1 X167.636 Y108.081 E0.00791
G1 X167.816 Y108.240 E0.00754
G1 X167.996 Y108.346 E0.00656
G1 X168.193 Y108.415 E0.00654
G1 X168.418 Y108.447 E0.00713
G1 X168.697 Y108.440 E0.00873
G1 X168.930 Y108.395 E0.00746
G1 X169.091 Y108.333 E0.00540
G1 X169.225 Y108.250 E0.00495
G1 X169.334 Y108.150 E0.00463
G1 X169.425 Y108.018 E0.00501
G1 X169.482 Y107.863 E0.00520
G1 X169.505 Y107.702 E0.00509
G1 X169.501 Y107.570 E0.00413
G1 X169.452 Y107.410 E0.00525
G1 X169.379 Y107.283 E0.00459
G1 X169.261 Y107.140 E0.00583
G1 X169.095 Y106.986 E0.00709
G1 X168.882 Y106.827 E0.00833
G1 X168.411 Y106.549 E0.01715
G1 X167.417 Y106.078 E0.03451
