; generated by PrusaSlicer 2.2.0+linux-x64 on 2020-10-22 at 13:17:28 UTC

; 

; external perimeters extrusion width = 0.45mm
; perimeters extrusion width = 0.45mm
; infill extrusion width = 0.45mm
; solid infill extrusion width = 0.45mm
; top infill extrusion width = 0.40mm
; support material extrusion width = 0.35mm
; first layer extrusion width = 0.42mm

M73 P0 R77
M73 Q0 S78
M201 X1000 Y1000 Z200 E5000 ; sets maximum accelerations, mm/sec^2
M203 X200 Y200 Z12 E120 ; sets maximum feedrates, mm/sec
M204 P1250 R1250 T1250 ; sets acceleration (P, T) and retract acceleration (R), mm/sec^2
M205 X8.00 Y8.00 Z0.40 E4.50 ; sets the jerk limits, mm/sec
M205 S0 T0 ; sets the minimum extruding and travel feed rate, mm/sec
M107
M862.3 P "MK3S" ; printer model check
M862.1 P0.4 ; nozzle diameter check
M115 U3.9.1 ; tell printer latest fw version
G90 ; use absolute coordinates
M83 ; extruder relative mode
M104 S260 ; set extruder temp
M140 S105 ; set bed temp
M190 S105 ; wait for bed temp
M109 S260 ; wait for extruder temp
G28 W ; home all without mesh bed level
G80 ; mesh bed leveling
G1 Y-3.0 F1000.0 ; go outside print area
G92 E0.0
G1 X60.0 E9.0 F1000.0 ; intro line
M73 Q0 S78
M73 P0 R77
G1 X100.0 E12.5 F1000.0 ; intro line
G92 E0.0
M221 S95

; Don't change E values below. Excessive value can damage the printer.

M907 E538 ; set extruder motor current
G21 ; set units to millimeters
G90 ; use absolute coordinates
M83 ; use relative distances for extrusion
M900 K0.04 ; Filament gcode LA 1.5
M900 K20 ; Filament gcode LA 1.0
;BEFORE_LAYER_CHANGE
G92 E0.0
;0.2


G1 E-0.80000 F2100.00000
G1 Z0.600 F10800.000
;AFTER_LAYER_CHANGE
;0.2
G1 X148.371 Y86.833
G1 Z0.200
G1 E0.80000 F2100.00000
M204 S1000
G1 F1200.000
G1 X150.686 Y92.236 E0.18431
G1 X150.756 Y92.801 E0.01787
G1 X150.748 Y117.557 E0.77619
G1 X150.527 Y118.380 E0.02673
G1 X148.146 Y123.045 E0.16423
G1 X145.820 Y125.771 E0.11234
G1 X143.014 Y128.326 E0.11900
G1 X138.112 Y130.863 E0.17305
G1 X137.375 Y131.086 E0.02414
G1 X112.601 Y131.097 E0.77677
G1 X111.800 Y130.882 E0.02602
G1 X106.953 Y128.450 E0.17002
G1 X106.519 Y128.110 E0.01728
G1 X101.633 Y123.174 E0.21777
G1 X99.427 Y118.107 E0.17326
G1 X99.262 Y117.483 E0.02024
G1 X99.253 Y92.435 E0.78536
G1 X99.474 Y91.616 E0.02661
G1 X101.854 Y86.955 E0.16411
G1 X104.180 Y84.229 E0.11234
G1 X106.971 Y81.685 E0.11841
G1 X111.867 Y79.147 E0.17292
G1 X112.404 Y78.954 E0.01787
G1 X112.929 Y78.894 E0.01657
G1 X137.193 Y78.894 E0.76080
G1 X137.718 Y78.953 E0.01657
G1 X138.214 Y79.125 E0.01645
G1 X142.911 Y81.473 E0.16466
G1 X143.478 Y81.887 E0.02201
G1 X148.329 Y86.790 E0.21624
G1 F8640.000
G1 X149.636 Y89.810 E-0.76000
G1 E-0.04000 F2100.00000
G1 Z0.800 F10800.000
G1 X137.821 Y101.213
G1 Z0.200
G1 E0.80000 F2100.00000
G1 F1200.000
G1 X137.821 Y83.578 E0.55293
G1 X137.193 Y83.578 E0.01967
G1 X137.193 Y81.271 E0.07234
G1 X137.067 Y81.271 E0.00397
G1 X137.067 Y101.044 E0.61995
G1 X136.312 Y101.044 E0.02365
G1 X136.312 Y81.271 E0.61995
G1 X135.558 Y81.271 E0.02365
G1 X135.558 Y96.430 E0.47527
G1 X134.804 Y96.430 E0.02365
G1 X134.804 Y81.271 E0.47527
G1 X134.050 Y81.271 E0.02365
G1 X134.050 Y96.430 E0.47527
G1 X133.570 Y96.430 E0.01503
G1 X133.570 Y94.122 E0.07234
G1 X133.296 Y94.122 E0.00861
G1 X133.296 Y81.271 E0.40294
G1 X132.542 Y81.271 E0.02365
G1 X132.542 Y94.122 E0.40294
G1 X131.787 Y94.122 E0.02365
G1 X131.787 Y81.271 E0.40294
G1 X131.033 Y81.271 E0.02365
G1 X131.033 Y94.122 E0.40294
G1 X130.279 Y94.122 E0.02365
G1 X130.279 Y81.271 E0.40294
G1 X129.525 Y81.271 E0.02365
G1 X129.525 Y94.122 E0.40294
G1 X128.956 Y94.122 E0.01783
G1 X128.956 Y91.815 E0.07234
G1 X128.771 Y91.815 E0.00582
G1 X128.771 Y81.271 E0.33060
G1 X128.017 Y81.271 E0.02365
G1 X128.017 Y91.815 E0.33060
G1 X127.262 Y91.815 E0.02365
G1 X127.262 Y81.271 E0.33060
G1 X126.508 Y81.271 E0.02365
G1 X126.508 Y91.815 E0.33060
G1 X125.754 Y91.815 E0.02365
G1 X125.754 Y81.271 E0.33060
G1 X125.000 Y81.271 E0.02365
G1 X125.000 Y91.815 E0.33060
G1 X124.246 Y91.815 E0.02365
G1 X124.246 Y81.271 E0.33060
G1 X123.492 Y81.271 E0.02365
G1 X123.492 Y91.815 E0.33060
G1 X122.738 Y91.815 E0.02365
G1 X122.738 Y81.271 E0.33060
G1 X121.983 Y81.271 E0.02365
G1 X121.983 Y91.815 E0.33060
G1 X121.229 Y91.815 E0.02365
G1 X121.229 Y81.271 E0.33060
G1 X120.475 Y81.271 E0.02365
G1 X120.475 Y94.122 E0.40294
G1 X119.721 Y94.122 E0.02365
G1 X119.721 Y81.271 E0.40294
G1 X118.967 Y81.271 E0.02365
G1 X118.967 Y94.122 E0.40294
G1 X118.213 Y94.122 E0.02365
G1 X118.213 Y81.271 E0.40294
G1 X117.458 Y81.271 E0.02365
G1 X117.458 Y94.122 E0.40294
G1 X116.704 Y94.122 E0.02365
G1 X116.704 Y81.271 E0.40294
G1 X115.950 Y81.271 E0.02365
G1 X115.950 Y96.430 E0.47527
G1 X115.196 Y96.430 E0.02365
G1 X115.196 Y81.271 E0.47527
G1 X114.442 Y81.271 E0.02365
G1 X114.442 Y96.430 E0.47527
G1 X114.122 Y96.430 E0.01001
G1 X114.122 Y101.044 E0.14467
G1 X113.688 Y101.044 E0.01363
G1 X113.688 Y81.271 E0.61995
G1 X112.933 Y81.271 E0.02365
G1 X112.933 Y101.213 E0.62527
G1 X101.621 Y92.637 F10800.000
G1 F1200.000
G1 X101.621 Y117.193 E0.76994
G1 X102.375 Y117.193 E0.02365
G1 X102.375 Y92.807 E0.76462
G1 X103.129 Y92.807 E0.02365
G1 X103.129 Y117.193 E0.76462
G1 X103.578 Y117.193 E0.01408
G1 X103.578 Y121.807 E0.14467
G1 X103.884 Y121.807 E0.00957
G1 X103.884 Y88.193 E1.05397
G1 X104.638 Y88.193 E0.02365
G1 X104.638 Y121.807 E1.05397
G1 X105.392 Y121.807 E0.02365
G1 X105.392 Y88.193 E1.05397
G1 X105.886 Y88.193 E0.01548
G1 X105.886 Y85.886 E0.07234
G1 X106.146 Y85.886 E0.00817
G1 X106.146 Y124.114 E1.19864
G1 X106.900 Y124.114 E0.02365
G1 X106.900 Y85.886 E1.19864
G1 X107.654 Y85.886 E0.02365
G1 X107.654 Y124.114 E1.19864
G1 X108.193 Y124.114 E0.01688
G1 X108.193 Y126.422 E0.07234
G1 X108.409 Y126.422 E0.00677
G1 X108.409 Y83.578 E1.34332
G1 X109.163 Y83.578 E0.02365
G1 X109.163 Y126.422 E1.34332
G1 X109.917 Y126.422 E0.02365
G1 X109.917 Y83.578 E1.34332
M73 Q1 S77
M73 P1 R76
G1 X110.671 Y83.578 E0.02365
G1 X110.671 Y126.422 E1.34332
G1 X111.425 Y126.422 E0.02365
G1 X111.425 Y83.578 E1.34332
G1 X112.179 Y83.578 E0.02365
G1 X112.179 Y101.044 E0.54761
G1 X111.815 Y101.044 E0.01141
G1 X111.815 Y108.956 E0.24809
G1 X112.179 Y108.956 E0.01141
G1 X112.179 Y126.422 E0.54761
G1 X112.807 Y126.422 E0.01967
G1 X112.807 Y128.729 E0.07234
G1 X112.933 Y128.729 E0.00397
G1 X112.933 Y108.956 E0.61995
G1 X113.688 Y108.956 E0.02365
G1 X113.688 Y128.729 E0.61995
G1 X114.442 Y128.729 E0.02365
G1 X114.442 Y113.570 E0.47527
G1 X115.196 Y113.570 E0.02365
G1 X115.196 Y128.729 E0.47527
G1 X115.950 Y128.729 E0.02365
G1 X115.950 Y113.570 E0.47527
G1 X116.430 Y113.570 E0.01503
G1 X116.430 Y115.878 E0.07234
G1 X116.704 Y115.878 E0.00861
G1 X116.704 Y128.729 E0.40294
G1 X117.458 Y128.729 E0.02365
G1 X117.458 Y115.878 E0.40294
G1 X118.213 Y115.878 E0.02365
G1 X118.213 Y128.729 E0.40294
G1 X118.967 Y128.729 E0.02365
G1 X118.967 Y115.878 E0.40294
G1 X119.721 Y115.878 E0.02365
G1 X119.721 Y128.729 E0.40294
G1 X120.475 Y128.729 E0.02365
G1 X120.475 Y115.878 E0.40294
G1 X121.044 Y115.878 E0.01783
G1 X121.044 Y118.185 E0.07234
G1 X121.229 Y118.185 E0.00582
G1 X121.229 Y128.729 E0.33060
G1 X121.983 Y128.729 E0.02365
G1 X121.983 Y118.185 E0.33060
G1 X122.738 Y118.185 E0.02365
G1 X122.738 Y128.729 E0.33060
G1 X123.492 Y128.729 E0.02365
G1 X123.492 Y118.185 E0.33060
G1 X124.246 Y118.185 E0.02365
G1 X124.246 Y128.729 E0.33060
G1 X125.000 Y128.729 E0.02365
G1 X125.000 Y118.185 E0.33060
G1 X125.754 Y118.185 E0.02365
G1 X125.754 Y128.729 E0.33060
G1 X126.508 Y128.729 E0.02365
G1 X126.508 Y118.185 E0.33060
G1 X127.262 Y118.185 E0.02365
G1 X127.262 Y128.729 E0.33060
G1 X128.017 Y128.729 E0.02365
G1 X128.017 Y118.185 E0.33060
G1 X128.771 Y118.185 E0.02365
G1 X128.771 Y128.729 E0.33060
G1 X129.525 Y128.729 E0.02365
G1 X129.525 Y115.878 E0.40294
G1 X130.279 Y115.878 E0.02365
G1 X130.279 Y128.729 E0.40294
G1 X131.033 Y128.729 E0.02365
G1 X131.033 Y115.878 E0.40294
G1 X131.787 Y115.878 E0.02365
G1 X131.787 Y128.729 E0.40294
G1 X132.542 Y128.729 E0.02365
G1 X132.542 Y115.878 E0.40294
G1 X133.296 Y115.878 E0.02365
G1 X133.296 Y128.729 E0.40294
G1 X134.050 Y128.729 E0.02365
G1 X134.050 Y113.570 E0.47527
G1 X134.804 Y113.570 E0.02365
G1 X134.804 Y128.729 E0.47527
G1 X135.558 Y128.729 E0.02365
G1 X135.558 Y113.570 E0.47527
G1 X135.878 Y113.570 E0.01001
G1 X135.878 Y108.956 E0.14467
G1 X136.312 Y108.956 E0.01363
G1 X136.312 Y128.729 E0.61995
G1 X137.067 Y128.729 E0.02365
G1 X137.067 Y108.956 E0.61995
G1 X137.821 Y108.956 E0.02365
G1 X137.821 Y126.422 E0.54761
G1 X138.575 Y126.422 E0.02365
G1 X138.575 Y83.578 E1.34332
G1 X139.329 Y83.578 E0.02365
G1 X139.329 Y126.422 E1.34332
G1 X140.083 Y126.422 E0.02365
G1 X140.083 Y83.578 E1.34332
G1 X140.837 Y83.578 E0.02365
G1 X140.837 Y126.422 E1.34332
G1 X141.591 Y126.422 E0.02365
G1 X141.591 Y83.578 E1.34332
G1 X141.807 Y83.578 E0.00677
G1 X141.807 Y85.886 E0.07234
G1 X142.346 Y85.886 E0.01688
G1 X142.346 Y124.114 E1.19864
G1 X143.100 Y124.114 E0.02365
G1 X143.100 Y85.886 E1.19864
G1 X143.854 Y85.886 E0.02365
G1 X143.854 Y124.114 E1.19864
G1 X144.114 Y124.114 E0.00817
G1 X144.114 Y121.807 E0.07234
G1 X144.608 Y121.807 E0.01548
G1 X144.608 Y88.193 E1.05397
G1 X145.362 Y88.193 E0.02365
G1 X145.362 Y121.807 E1.05397
G1 X146.116 Y121.807 E0.02365
G1 X146.116 Y88.193 E1.05397
G1 X146.422 Y88.193 E0.00957
G1 X146.422 Y92.807 E0.14467
G1 X146.871 Y92.807 E0.01408
G1 X146.871 Y117.193 E0.76462
G1 X147.625 Y117.193 E0.02365
G1 X147.625 Y92.807 E0.76462
G1 X148.379 Y92.807 E0.02365
G1 X148.379 Y117.363 E0.76994
G1 F8640.000
G1 X148.379 Y114.071 E-0.76000
G1 E-0.04000 F2100.00000
G1 Z0.800 F10800.000
G1 X128.394 Y106.782
G1 Z0.200
G1 E0.80000 F2100.00000
G1 F1200.000
G1 X128.301 Y106.958 E0.00625
G1 X128.035 Y107.349 E0.01482
G1 X127.798 Y107.627 E0.01148
G1 X127.538 Y107.879 E0.01134
G1 X127.256 Y108.105 E0.01134
G1 X126.954 Y108.303 E0.01134
G1 X126.634 Y108.472 E0.01134
G1 X126.296 Y108.613 E0.01148
G1 X125.842 Y108.745 E0.01482
G1 X125.481 Y108.807 E0.01148
G1 X125.121 Y108.836 E0.01134
G1 X124.759 Y108.830 E0.01134
G1 X124.400 Y108.791 E0.01134
G1 X124.046 Y108.717 E0.01134
G1 X123.696 Y108.610 E0.01148
G1 X123.262 Y108.422 E0.01482
G1 X122.944 Y108.240 E0.01148
G1 X122.648 Y108.032 E0.01134
G1 X122.369 Y107.795 E0.01148
G1 X122.046 Y107.450 E0.01482
G1 X121.826 Y107.157 E0.01148
G1 X121.637 Y106.849 E0.01134
G1 X121.478 Y106.524 E0.01134
G1 X121.350 Y106.186 E0.01134
G1 X121.255 Y105.837 E0.01135
G1 X121.192 Y105.481 E0.01133
G1 X121.164 Y105.121 E0.01134
G1 X121.170 Y104.759 E0.01134
G1 X121.209 Y104.400 E0.01133
G1 X121.283 Y104.046 E0.01134
G1 X121.389 Y103.700 E0.01134
G1 X121.528 Y103.366 E0.01134
G1 X121.699 Y103.042 E0.01148
G1 X121.965 Y102.651 E0.01482
G1 X122.202 Y102.373 E0.01148
G1 X122.462 Y102.121 E0.01134
G1 X122.744 Y101.895 E0.01134
G1 X123.046 Y101.697 E0.01134
G1 X123.366 Y101.528 E0.01134
G1 X123.704 Y101.387 E0.01148
G1 X124.158 Y101.255 E0.01482
G1 X124.519 Y101.193 E0.01148
G1 X124.879 Y101.164 E0.01134
G1 X125.241 Y101.170 E0.01134
G1 X125.600 Y101.209 E0.01134
G1 X125.954 Y101.283 E0.01134
G1 X126.304 Y101.390 E0.01148
G1 X126.738 Y101.578 E0.01482
G1 X127.056 Y101.760 E0.01148
G1 X127.352 Y101.968 E0.01134
G1 X127.631 Y102.205 E0.01148
G1 X127.954 Y102.550 E0.01482
G1 X128.174 Y102.843 E0.01148
G1 X128.363 Y103.151 E0.01134
M73 Q2 S76
G1 X128.522 Y103.476 E0.01134
G1 X128.650 Y103.814 E0.01134
G1 X128.745 Y104.163 E0.01135
M73 P2 R75
G1 X128.808 Y104.519 E0.01133
G1 X128.836 Y104.879 E0.01134
G1 X128.830 Y105.241 E0.01134
G1 X128.791 Y105.600 E0.01133
G1 X128.717 Y105.954 E0.01134
G1 X128.611 Y106.300 E0.01134
G1 X128.422 Y106.729 E0.01468
G1 X128.089 Y106.552 F10800.000
G1 F1200.000
G1 X127.978 Y106.763 E0.00748
G1 X127.735 Y107.120 E0.01352
G1 X127.522 Y107.369 E0.01027
G1 X127.288 Y107.596 E0.01022
G1 X127.034 Y107.799 E0.01022
G1 X126.761 Y107.978 E0.01022
G1 X126.473 Y108.131 E0.01022
G1 X126.171 Y108.256 E0.01027
G1 X125.756 Y108.377 E0.01352
G1 X125.434 Y108.433 E0.01027
G1 X125.109 Y108.459 E0.01022
G1 X124.783 Y108.453 E0.01022
G1 X124.459 Y108.418 E0.01022
G1 X124.139 Y108.352 E0.01022
G1 X123.826 Y108.255 E0.01027
G1 X123.431 Y108.084 E0.01352
G1 X123.146 Y107.922 E0.01027
G1 X122.879 Y107.734 E0.01022
G1 X122.630 Y107.521 E0.01027
G1 X122.335 Y107.207 E0.01352
G1 X122.138 Y106.945 E0.01027
G1 X121.968 Y106.667 E0.01022
G1 X121.824 Y106.374 E0.01022
G1 X121.709 Y106.069 E0.01022
G1 X121.623 Y105.755 E0.01023
G1 X121.567 Y105.434 E0.01021
G1 X121.541 Y105.109 E0.01022
G1 X121.547 Y104.783 E0.01022
G1 X121.582 Y104.459 E0.01022
G1 X121.648 Y104.139 E0.01022
G1 X121.744 Y103.828 E0.01022
G1 X121.869 Y103.527 E0.01022
G1 X122.022 Y103.237 E0.01027
G1 X122.265 Y102.880 E0.01352
G1 X122.478 Y102.631 E0.01027
G1 X122.712 Y102.404 E0.01022
G1 X122.966 Y102.201 E0.01022
G1 X123.239 Y102.022 E0.01022
G1 X123.527 Y101.869 E0.01022
G1 X123.829 Y101.744 E0.01027
G1 X124.244 Y101.623 E0.01352
G1 X124.566 Y101.567 E0.01027
G1 X124.891 Y101.541 E0.01022
G1 X125.217 Y101.547 E0.01022
G1 X125.541 Y101.582 E0.01022
G1 X125.861 Y101.648 E0.01022
G1 X126.174 Y101.745 E0.01027
G1 X126.569 Y101.916 E0.01352
G1 X126.854 Y102.078 E0.01027
G1 X127.121 Y102.266 E0.01022
G1 X127.370 Y102.479 E0.01027
G1 X127.665 Y102.793 E0.01352
G1 X127.862 Y103.055 E0.01027
G1 X128.032 Y103.333 E0.01022
G1 X128.176 Y103.626 E0.01022
G1 X128.291 Y103.931 E0.01022
G1 X128.377 Y104.245 E0.01023
G1 X128.433 Y104.566 E0.01021
G1 X128.459 Y104.891 E0.01022
G1 X128.453 Y105.217 E0.01022
G1 X128.418 Y105.541 E0.01022
G1 X128.352 Y105.861 E0.01022
G1 X128.256 Y106.172 E0.01022
G1 X128.117 Y106.499 E0.01113
G1 X128.224 Y106.749 F10800.000
G1 F8640.000
G1 X127.978 Y106.763 E-0.06893
G1 X127.735 Y107.120 E-0.09958
G1 X127.522 Y107.369 E-0.07565
G1 X127.288 Y107.596 E-0.07528
G1 X127.034 Y107.799 E-0.07527
G1 X126.761 Y107.978 E-0.07527
G1 X126.473 Y108.131 E-0.07528
G1 X126.171 Y108.256 E-0.07566
G1 X125.756 Y108.377 E-0.09957
G1 X125.588 Y108.406 E-0.03951
G1 E-0.04000 F2100.00000
G1 Z0.800 F10800.000
G1 X120.960 Y102.488
G1 Z0.200
G1 E0.80000 F2100.00000
G1 F1200.000
G1 X121.059 Y102.327 E0.00591
G1 X121.431 Y101.847 E0.01904
G1 X121.737 Y101.532 E0.01378
G1 X122.205 Y101.145 E0.01904
G1 X122.576 Y100.901 E0.01392
G1 X122.972 Y100.691 E0.01407
G1 X123.387 Y100.519 E0.01407
G1 X123.816 Y100.387 E0.01409
G1 X124.255 Y100.296 E0.01404
G1 X124.701 Y100.247 E0.01407
G1 X125.150 Y100.240 E0.01407
G1 X125.597 Y100.275 E0.01407
G1 X126.039 Y100.352 E0.01407
G1 X126.472 Y100.471 E0.01407
G1 X126.891 Y100.629 E0.01407
G1 X127.294 Y100.827 E0.01407
G1 X127.673 Y101.059 E0.01392
G1 X128.153 Y101.431 E0.01904
G1 X128.468 Y101.737 E0.01378
G1 X128.855 Y102.204 E0.01901
G1 X129.099 Y102.576 E0.01395
G1 X129.309 Y102.972 E0.01407
G1 X129.481 Y103.387 E0.01407
G1 X129.613 Y103.816 E0.01407
G1 X129.704 Y104.255 E0.01407
G1 X129.753 Y104.701 E0.01407
G1 X129.760 Y105.150 E0.01407
G1 X129.725 Y105.597 E0.01406
G1 X129.648 Y106.038 E0.01405
G1 X129.529 Y106.472 E0.01409
G1 X129.371 Y106.891 E0.01407
G1 X129.173 Y107.294 E0.01407
G1 X128.941 Y107.673 E0.01392
G1 X128.569 Y108.153 E0.01904
G1 X128.263 Y108.468 E0.01378
G1 X127.795 Y108.855 E0.01904
G1 X127.424 Y109.099 E0.01392
G1 X127.028 Y109.309 E0.01407
G1 X126.613 Y109.481 E0.01407
G1 X126.184 Y109.613 E0.01407
G1 X125.745 Y109.704 E0.01407
G1 X125.298 Y109.753 E0.01409
G1 X124.850 Y109.760 E0.01404
G1 X124.403 Y109.725 E0.01407
G1 X123.961 Y109.648 E0.01407
G1 X123.528 Y109.529 E0.01407
G1 X123.109 Y109.371 E0.01407
G1 X122.706 Y109.173 E0.01407
G1 X122.327 Y108.941 E0.01392
G1 X121.847 Y108.569 E0.01904
G1 X121.532 Y108.263 E0.01378
G1 X121.145 Y107.796 E0.01901
G1 X120.901 Y107.424 E0.01395
G1 X120.691 Y107.028 E0.01407
G1 X120.519 Y106.613 E0.01407
G1 X120.387 Y106.184 E0.01407
G1 X120.296 Y105.745 E0.01407
G1 X120.247 Y105.299 E0.01407
G1 X120.240 Y104.850 E0.01407
G1 X120.275 Y104.403 E0.01406
G1 X120.352 Y103.962 E0.01405
G1 X120.471 Y103.528 E0.01409
G1 X120.629 Y103.109 E0.01407
G1 X120.827 Y102.706 E0.01407
G1 X120.929 Y102.539 E0.00613
G1 X120.608 Y102.342 F10800.000
G1 F1200.000
