; generated by PrusaSlicer 2.2.0+linux-x64 on 2020-10-23 at 23:05:17 UTC

; 

; external perimeters extrusion width = 0.45mm
; perimeters extrusion width = 0.45mm
; infill extrusion width = 0.45mm
; solid infill extrusion width = 0.45mm
; top infill extrusion width = 0.40mm
; support material extrusion width = 0.35mm
; first layer extrusion width = 0.42mm

M73 P0 R71
M73 Q0 S72
M201 X1000 Y1000 Z200 E5000 ; sets maximum accelerations, mm/sec^2
M203 X200 Y200 Z12 E120 ; sets maximum feedrates, mm/sec
M204 P1250 R1250 T1250 ; sets acceleration (P, T) and retract acceleration (R), mm/sec^2
M205 X8.00 Y8.00 Z0.40 E4.50 ; sets the jerk limits, mm/sec
M205 S0 T0 ; sets the minimum extruding and travel feed rate, mm/sec
M107
M862.3 P "MK3S" ; printer model check
M862.1 P0.4 ; nozzle diameter check
M115 U3.9.1 ; tell printer latest fw version
G90 ; use absolute coordinates
M83 ; extruder relative mode
M104 S260 ; set extruder temp
M140 S105 ; set bed temp
M190 S105 ; wait for bed temp
M109 S260 ; wait for extruder temp
G28 W ; home all without mesh bed level
G80 ; mesh bed leveling
G1 Y-3.0 F1000.0 ; go outside print area
G92 E0.0
G1 X60.0 E9.0 F1000.0 ; intro line
M73 Q0 S72
M73 P0 R71
G1 X100.0 E12.5 F1000.0 ; intro line
G92 E0.0
M221 S95

; Don't change E values below. Excessive value can damage the printer.

M907 E538 ; set extruder motor current
G21 ; set units to millimeters
G90 ; use absolute coordinates
M83 ; use relative distances for extrusion
M900 K0.04 ; Filament gcode LA 1.5
M900 K20 ; Filament gcode LA 1.0
;BEFORE_LAYER_CHANGE
G92 E0.0
;0.2


G1 E-0.80000 F2100.00000
G1 Z0.600 F10800.000
;AFTER_LAYER_CHANGE
;0.2
G1 X148.371 Y86.833
G1 Z0.200
G1 E0.80000 F2100.00000
M204 S1000
G1 F1200.000
G1 X150.686 Y92.236 E0.18431
G1 X150.756 Y92.801 E0.01787
G1 X150.748 Y117.557 E0.77619
G1 X150.527 Y118.380 E0.02673
G1 X148.146 Y123.045 E0.16423
G1 X145.820 Y125.771 E0.11234
G1 X143.014 Y128.326 E0.11900
G1 X138.112 Y130.863 E0.17305
G1 X137.375 Y131.086 E0.02414
G1 X112.601 Y131.097 E0.77677
G1 X111.800 Y130.882 E0.02602
G1 X106.953 Y128.450 E0.17002
G1 X106.519 Y128.110 E0.01728
G1 X101.633 Y123.174 E0.21777
G1 X99.427 Y118.107 E0.17326
G1 X99.262 Y117.483 E0.02024
G1 X99.253 Y92.435 E0.78536
G1 X99.474 Y91.616 E0.02661
G1 X101.854 Y86.955 E0.16411
G1 X104.180 Y84.229 E0.11234
G1 X106.971 Y81.685 E0.11841
G1 X111.867 Y79.147 E0.17292
G1 X112.404 Y78.954 E0.01787
G1 X112.929 Y78.894 E0.01657
G1 X137.193 Y78.894 E0.76080
G1 X137.718 Y78.953 E0.01657
G1 X138.214 Y79.125 E0.01645
G1 X142.911 Y81.473 E0.16466
G1 X143.478 Y81.887 E0.02201
G1 X148.329 Y86.790 E0.21624
G1 F8640.000
G1 X149.636 Y89.810 E-0.76000
G1 E-0.04000 F2100.00000
G1 Z0.800 F10800.000
G1 X137.821 Y101.213
G1 Z0.200
G1 E0.80000 F2100.00000
G1 F1200.000
G1 X137.821 Y83.578 E0.55293
G1 X137.193 Y83.578 E0.01967
G1 X137.193 Y81.271 E0.07234
G1 X137.067 Y81.271 E0.00397
G1 X137.067 Y101.044 E0.61995
G1 X136.312 Y101.044 E0.02365
G1 X136.312 Y81.271 E0.61995
G1 X135.558 Y81.271 E0.02365
G1 X135.558 Y96.430 E0.47527
G1 X134.804 Y96.430 E0.02365
G1 X134.804 Y81.271 E0.47527
G1 X134.050 Y81.271 E0.02365
G1 X134.050 Y96.430 E0.47527
G1 X133.570 Y96.430 E0.01503
G1 X133.570 Y94.122 E0.07234
G1 X133.296 Y94.122 E0.00861
G1 X133.296 Y81.271 E0.40294
G1 X132.542 Y81.271 E0.02365
G1 X132.542 Y94.122 E0.40294
G1 X131.787 Y94.122 E0.02365
G1 X131.787 Y81.271 E0.40294
G1 X131.033 Y81.271 E0.02365
G1 X131.033 Y94.122 E0.40294
G1 X130.279 Y94.122 E0.02365
G1 X130.279 Y81.271 E0.40294
G1 X129.525 Y81.271 E0.02365
G1 X129.525 Y94.122 E0.40294
G1 X128.956 Y94.122 E0.01783
G1 X128.956 Y91.815 E0.07234
G1 X128.771 Y91.815 E0.00582
G1 X128.771 Y81.271 E0.33060
G1 X128.017 Y81.271 E0.02365
G1 X128.017 Y91.815 E0.33060
G1 X127.262 Y91.815 E0.02365
G1 X127.262 Y81.271 E0.33060
G1 X126.508 Y81.271 E0.02365
G1 X126.508 Y91.815 E0.33060
G1 X125.754 Y91.815 E0.02365
G1 X125.754 Y81.271 E0.33060
G1 X125.000 Y81.271 E0.02365
G1 X125.000 Y91.815 E0.33060
G1 X124.246 Y91.815 E0.02365
G1 X124.246 Y81.271 E0.33060
G1 X123.492 Y81.271 E0.02365
G1 X123.492 Y91.815 E0.33060
G1 X122.738 Y91.815 E0.02365
G1 X122.738 Y81.271 E0.33060
G1 X121.983 Y81.271 E0.02365
G1 X121.983 Y91.815 E0.33060
G1 X121.229 Y91.815 E0.02365
G1 X121.229 Y81.271 E0.33060
G1 X120.475 Y81.271 E0.02365
G1 X120.475 Y94.122 E0.40294
G1 X119.721 Y94.122 E0.02365
G1 X119.721 Y81.271 E0.40294
G1 X118.967 Y81.271 E0.02365
G1 X118.967 Y94.122 E0.40294
G1 X118.213 Y94.122 E0.02365
G1 X118.213 Y81.271 E0.40294
G1 X117.458 Y81.271 E0.02365
G1 X117.458 Y94.122 E0.40294
G1 X116.704 Y94.122 E0.02365
G1 X116.704 Y81.271 E0.40294
G1 X115.950 Y81.271 E0.02365
G1 X115.950 Y96.430 E0.47527
G1 X115.196 Y96.430 E0.02365
G1 X115.196 Y81.271 E0.47527
G1 X114.442 Y81.271 E0.02365
G1 X114.442 Y96.430 E0.47527
G1 X114.122 Y96.430 E0.01001
G1 X114.122 Y101.044 E0.14467
G1 X113.688 Y101.044 E0.01363
G1 X113.688 Y81.271 E0.61995
G1 X112.933 Y81.271 E0.02365
G1 X112.933 Y101.213 E0.62527
G1 X101.621 Y92.637 F10800.000
G1 F1200.000
G1 X101.621 Y117.193 E0.76994
G1 X102.375 Y117.193 E0.02365
G1 X102.375 Y92.807 E0.76462
G1 X103.129 Y92.807 E0.02365
G1 X103.129 Y117.193 E0.76462
G1 X103.578 Y117.193 E0.01408
G1 X103.578 Y121.807 E0.14467
G1 X103.884 Y121.807 E0.00957
G1 X103.884 Y88.193 E1.05397
G1 X104.638 Y88.193 E0.02365
G1 X104.638 Y121.807 E1.05397
G1 X105.392 Y121.807 E0.02365
G1 X105.392 Y88.193 E1.05397
G1 X105.886 Y88.193 E0.01548
G1 X105.886 Y85.886 E0.07234
G1 X106.146 Y85.886 E0.00817
G1 X106.146 Y124.114 E1.19864
G1 X106.900 Y124.114 E0.02365
G1 X106.900 Y85.886 E1.19864
G1 X107.654 Y85.886 E0.02365
G1 X107.654 Y124.114 E1.19864
G1 X108.193 Y124.114 E0.01688
G1 X108.193 Y126.422 E0.07234
G1 X108.409 Y126.422 E0.00677
G1 X108.409 Y83.578 E1.34332
G1 X109.163 Y83.578 E0.02365
G1 X109.163 Y126.422 E1.34332
G1 X109.917 Y126.422 E0.02365
G1 X109.917 Y83.578 E1.34332
M73 Q1 S71
M73 P1 R70
G1 X110.671 Y83.578 E0.02365
G1 X110.671 Y126.422 E1.34332
G1 X111.425 Y126.422 E0.02365
G1 X111.425 Y83.578 E1.34332
G1 X112.179 Y83.578 E0.02365
G1 X112.179 Y101.044 E0.54761
G1 X111.815 Y101.044 E0.01141
G1 X111.815 Y108.956 E0.24809
G1 X112.179 Y108.956 E0.01141
G1 X112.179 Y126.422 E0.54761
G1 X112.807 Y126.422 E0.01967
G1 X112.807 Y128.729 E0.07234
G1 X112.933 Y128.729 E0.00397
G1 X112.933 Y108.956 E0.61995
G1 X113.688 Y108.956 E0.02365
G1 X113.688 Y128.729 E0.61995
G1 X114.442 Y128.729 E0.02365
G1 X114.442 Y113.570 E0.47527
G1 X115.196 Y113.570 E0.02365
G1 X115.196 Y128.729 E0.47527
G1 X115.950 Y128.729 E0.02365
G1 X115.950 Y113.570 E0.47527
G1 X116.430 Y113.570 E0.01503
G1 X116.430 Y115.878 E0.07234
G1 X116.704 Y115.878 E0.00861
G1 X116.704 Y128.729 E0.40294
G1 X117.458 Y128.729 E0.02365
G1 X117.458 Y115.878 E0.40294
G1 X118.213 Y115.878 E0.02365
G1 X118.213 Y128.729 E0.40294
G1 X118.967 Y128.729 E0.02365
G1 X118.967 Y115.878 E0.40294
G1 X119.721 Y115.878 E0.02365
G1 X119.721 Y128.729 E0.40294
G1 X120.475 Y128.729 E0.02365
G1 X120.475 Y115.878 E0.40294
G1 X121.044 Y115.878 E0.01783
G1 X121.044 Y118.185 E0.07234
G1 X121.229 Y118.185 E0.00582
G1 X121.229 Y128.729 E0.33060
G1 X121.983 Y128.729 E0.02365
G1 X121.983 Y118.185 E0.33060
G1 X122.738 Y118.185 E0.02365
G1 X122.738 Y128.729 E0.33060
G1 X123.492 Y128.729 E0.02365
G1 X123.492 Y118.185 E0.33060
G1 X124.246 Y118.185 E0.02365
G1 X124.246 Y128.729 E0.33060
G1 X125.000 Y128.729 E0.02365
G1 X125.000 Y118.185 E0.33060
G1 X125.754 Y118.185 E0.02365
G1 X125.754 Y128.729 E0.33060
G1 X126.508 Y128.729 E0.02365
G1 X126.508 Y118.185 E0.33060
G1 X127.262 Y118.185 E0.02365
G1 X127.262 Y128.729 E0.33060
G1 X128.017 Y128.729 E0.02365
G1 X128.017 Y118.185 E0.33060
G1 X128.771 Y118.185 E0.02365
G1 X128.771 Y128.729 E0.33060
G1 X129.525 Y128.729 E0.02365
G1 X129.525 Y115.878 E0.40294
G1 X130.279 Y115.878 E0.02365
G1 X130.279 Y128.729 E0.40294
G1 X131.033 Y128.729 E0.02365
G1 X131.033 Y115.878 E0.40294
G1 X131.787 Y115.878 E0.02365
G1 X131.787 Y128.729 E0.40294
G1 X132.542 Y128.729 E0.02365
G1 X132.542 Y115.878 E0.40294
G1 X133.296 Y115.878 E0.02365
G1 X133.296 Y128.729 E0.40294
G1 X134.050 Y128.729 E0.02365
G1 X134.050 Y113.570 E0.47527
G1 X134.804 Y113.570 E0.02365
G1 X134.804 Y128.729 E0.47527
G1 X135.558 Y128.729 E0.02365
G1 X135.558 Y113.570 E0.47527
G1 X135.878 Y113.570 E0.01001
G1 X135.878 Y108.956 E0.14467
G1 X136.312 Y108.956 E0.01363
G1 X136.312 Y128.729 E0.61995
G1 X137.067 Y128.729 E0.02365
G1 X137.067 Y108.956 E0.61995
G1 X137.821 Y108.956 E0.02365
G1 X137.821 Y126.422 E0.54761
G1 X138.575 Y126.422 E0.02365
G1 X138.575 Y83.578 E1.34332
G1 X139.329 Y83.578 E0.02365
G1 X139.329 Y126.422 E1.34332
G1 X140.083 Y126.422 E0.02365
G1 X140.083 Y83.578 E1.34332
G1 X140.837 Y83.578 E0.02365
G1 X140.837 Y126.422 E1.34332
G1 X141.591 Y126.422 E0.02365
G1 X141.591 Y83.578 E1.34332
G1 X141.807 Y83.578 E0.00677
G1 X141.807 Y85.886 E0.07234
G1 X142.346 Y85.886 E0.01688
G1 X142.346 Y124.114 E1.19864
G1 X143.100 Y124.114 E0.02365
G1 X143.100 Y85.886 E1.19864
G1 X143.854 Y85.886 E0.02365
G1 X143.854 Y124.114 E1.19864
G1 X144.114 Y124.114 E0.00817
G1 X144.114 Y121.807 E0.07234
G1 X144.608 Y121.807 E0.01548
G1 X144.608 Y88.193 E1.05397
G1 X145.362 Y88.193 E0.02365
G1 X145.362 Y121.807 E1.05397
G1 X146.116 Y121.807 E0.02365
G1 X146.116 Y88.193 E1.05397
G1 X146.422 Y88.193 E0.00957
G1 X146.422 Y92.807 E0.14467
G1 X146.871 Y92.807 E0.01408
G1 X146.871 Y117.193 E0.76462
G1 X147.625 Y117.193 E0.02365
G1 X147.625 Y92.807 E0.76462
G1 X148.379 Y92.807 E0.02365
G1 X148.379 Y117.363 E0.76994
G1 F8640.000
G1 X148.379 Y114.071 E-0.76000
G1 E-0.04000 F2100.00000
G1 Z0.800 F10800.000
G1 X128.436 Y106.709
G1 Z0.200
G1 E0.80000 F2100.00000
G1 F1200.000
G1 X128.242 Y107.054 E0.01240
G1 X128.055 Y107.323 E0.01027
G1 X127.798 Y107.627 E0.01250
G1 X127.508 Y107.905 E0.01259
G1 X127.190 Y108.151 E0.01260
G1 X126.852 Y108.362 E0.01250
G1 X126.558 Y108.507 E0.01027
G1 X126.186 Y108.650 E0.01250
G1 X125.801 Y108.753 E0.01250
G1 X125.478 Y108.808 E0.01027
G1 X125.080 Y108.837 E0.01250
G1 X124.679 Y108.824 E0.01260
G1 X124.281 Y108.770 E0.01260
G1 X123.894 Y108.675 E0.01250
G1 X123.587 Y108.568 E0.01017
G1 X123.291 Y108.436 E0.01017
G1 X122.946 Y108.242 E0.01240
G1 X122.677 Y108.055 E0.01027
G1 X122.373 Y107.798 E0.01250
G1 X122.095 Y107.508 E0.01260
G1 X121.849 Y107.190 E0.01260
G1 X121.638 Y106.852 E0.01250
G1 X121.493 Y106.558 E0.01027
G1 X121.350 Y106.186 E0.01250
G1 X121.247 Y105.801 E0.01250
G1 X121.192 Y105.477 E0.01031
G1 X121.163 Y105.080 E0.01247
G1 X121.176 Y104.679 E0.01259
G1 X121.230 Y104.281 E0.01260
G1 X121.325 Y103.894 E0.01250
G1 X121.432 Y103.587 E0.01017
G1 X121.564 Y103.291 E0.01017
G1 X121.758 Y102.946 E0.01240
G1 X121.945 Y102.677 E0.01027
G1 X122.202 Y102.373 E0.01250
G1 X122.492 Y102.095 E0.01259
G1 X122.810 Y101.849 E0.01260
G1 X123.148 Y101.638 E0.01250
G1 X123.442 Y101.493 E0.01027
G1 X123.814 Y101.350 E0.01250
G1 X124.199 Y101.247 E0.01250
G1 X124.522 Y101.192 E0.01027
G1 X124.920 Y101.163 E0.01250
G1 X125.321 Y101.176 E0.01260
G1 X125.719 Y101.230 E0.01260
G1 X126.106 Y101.325 E0.01250
G1 X126.413 Y101.432 E0.01017
G1 X126.709 Y101.564 E0.01017
G1 X127.054 Y101.758 E0.01240
G1 X127.323 Y101.945 E0.01027
G1 X127.627 Y102.202 E0.01250
G1 X127.905 Y102.492 E0.01260
G1 X128.151 Y102.810 E0.01260
G1 X128.362 Y103.148 E0.01250
M73 Q2 S70
G1 X128.507 Y103.442 E0.01027
G1 X128.650 Y103.814 E0.01250
M73 P2 R69
G1 X128.753 Y104.199 E0.01250
G1 X128.808 Y104.523 E0.01031
G1 X128.837 Y104.920 E0.01247
G1 X128.824 Y105.321 E0.01259
G1 X128.770 Y105.719 E0.01260
G1 X128.675 Y106.106 E0.01250
G1 X128.461 Y106.654 E0.01845
G1 X128.116 Y106.501 F10800.000
G1 F1200.000
G1 X127.922 Y106.853 E0.01261
G1 X127.756 Y107.093 E0.00916
G1 X127.522 Y107.369 E0.01132
G1 X127.261 Y107.619 E0.01136
G1 X126.975 Y107.841 E0.01136
G1 X126.668 Y108.032 E0.01132
G1 X126.406 Y108.162 E0.00916
G1 X126.069 Y108.291 E0.01132
G1 X125.720 Y108.384 E0.01132
G1 X125.433 Y108.433 E0.00916
G1 X125.072 Y108.460 E0.01132
G1 X124.710 Y108.448 E0.01136
G1 X124.352 Y108.399 E0.01136
G1 X124.001 Y108.313 E0.01132
G1 X123.460 Y108.099 E0.01823
G1 X123.147 Y107.922 E0.01129
G1 X122.907 Y107.756 E0.00915
G1 X122.631 Y107.522 E0.01132
G1 X122.381 Y107.261 E0.01136
G1 X122.159 Y106.975 E0.01136
G1 X121.968 Y106.668 E0.01132
G1 X121.838 Y106.406 E0.00916
G1 X121.709 Y106.069 E0.01132
G1 X121.616 Y105.720 E0.01132
G1 X121.567 Y105.431 E0.00919
G1 X121.540 Y105.072 E0.01129
G1 X121.552 Y104.710 E0.01135
G1 X121.601 Y104.352 E0.01136
G1 X121.687 Y104.001 E0.01132
G1 X121.901 Y103.460 E0.01823
G1 X122.078 Y103.147 E0.01129
G1 X122.244 Y102.907 E0.00916
G1 X122.478 Y102.631 E0.01132
G1 X122.739 Y102.381 E0.01136
G1 X123.025 Y102.159 E0.01136
G1 X123.332 Y101.968 E0.01132
G1 X123.594 Y101.838 E0.00916
G1 X123.931 Y101.709 E0.01132
G1 X124.280 Y101.616 E0.01132
G1 X124.567 Y101.567 E0.00916
G1 X124.928 Y101.540 E0.01132
G1 X125.290 Y101.552 E0.01136
G1 X125.648 Y101.601 E0.01136
G1 X125.999 Y101.687 E0.01132
G1 X126.540 Y101.901 E0.01823
G1 X126.853 Y102.078 E0.01129
G1 X127.093 Y102.244 E0.00915
G1 X127.369 Y102.478 E0.01132
G1 X127.619 Y102.739 E0.01136
G1 X127.841 Y103.025 E0.01136
G1 X128.032 Y103.332 E0.01132
G1 X128.162 Y103.594 E0.00916
G1 X128.291 Y103.931 E0.01132
G1 X128.384 Y104.280 E0.01132
G1 X128.433 Y104.569 E0.00919
G1 X128.460 Y104.928 E0.01129
G1 X128.448 Y105.290 E0.01135
G1 X128.399 Y105.648 E0.01136
G1 X128.313 Y105.999 E0.01132
G1 X128.140 Y106.446 E0.01502
G1 X128.344 Y106.830 F10800.000
G1 F8640.000
G1 X127.922 Y106.853 E-0.10664
G1 X127.756 Y107.093 E-0.06742
G1 X127.522 Y107.369 E-0.08339
G1 X127.261 Y107.619 E-0.08362
G1 X126.975 Y107.841 E-0.08363
G1 X126.668 Y108.032 E-0.08338
G1 X126.406 Y108.162 E-0.06743
G1 X126.069 Y108.291 E-0.08337
G1 X125.720 Y108.384 E-0.08338
G1 X125.645 Y108.397 E-0.01773
G1 E-0.04000 F2100.00000
G1 Z0.800 F10800.000
G1 X127.403 Y109.107
G1 Z0.200
G1 E0.80000 F2100.00000
G1 F1200.000
G1 X127.209 Y109.219 E0.00701
G1 X126.753 Y109.428 E0.01574
G1 X126.278 Y109.588 E0.01571
G1 X125.895 Y109.677 E0.01231
G1 X125.398 Y109.745 E0.01573
G1 X124.900 Y109.761 E0.01563
G1 X124.400 Y109.724 E0.01572
G1 X124.012 Y109.659 E0.01233
G1 X123.528 Y109.529 E0.01571
G1 X123.060 Y109.349 E0.01573
G1 X122.708 Y109.175 E0.01231
G1 X122.282 Y108.910 E0.01573
G1 X121.888 Y108.605 E0.01563
G1 X121.529 Y108.260 E0.01563
G1 X121.205 Y107.877 E0.01573
G1 X120.979 Y107.552 E0.01241
G1 X120.781 Y107.209 E0.01241
G1 X120.572 Y106.753 E0.01573
G1 X120.413 Y106.281 E0.01563
G1 X120.304 Y105.791 E0.01573
G1 X120.255 Y105.402 E0.01231
G1 X120.239 Y104.897 E0.01582
G1 X120.263 Y104.505 E0.01232
G1 X120.342 Y104.010 E0.01573
G1 X120.471 Y103.528 E0.01563
G1 X120.650 Y103.063 E0.01563
G1 X120.877 Y102.616 E0.01573
G1 X121.088 Y102.285 E0.01231
G1 X121.395 Y101.888 E0.01573
G1 X121.740 Y101.529 E0.01563
G1 X122.123 Y101.205 E0.01573
G1 X122.448 Y100.979 E0.01241
G1 X122.791 Y100.781 E0.01243
G1 X123.247 Y100.572 E0.01571
G1 X123.719 Y100.413 E0.01563
G1 X124.206 Y100.305 E0.01563
G1 X124.704 Y100.247 E0.01573
G1 X125.100 Y100.239 E0.01241
G1 X125.495 Y100.263 E0.01241
G1 X125.990 Y100.342 E0.01573
G1 X126.472 Y100.471 E0.01563
G1 X126.940 Y100.651 E0.01573
G1 X127.292 Y100.825 E0.01231
G1 X127.718 Y101.090 E0.01573
G1 X128.112 Y101.395 E0.01563
G1 X128.471 Y101.740 E0.01563
G1 X128.795 Y102.123 E0.01573
G1 X129.019 Y102.446 E0.01231
G1 X129.265 Y102.883 E0.01573
G1 X129.463 Y103.340 E0.01563
G1 X129.613 Y103.819 E0.01573
G1 X129.695 Y104.203 E0.01231
G1 X129.753 Y104.704 E0.01582
G1 X129.761 Y105.096 E0.01231
G1 X129.724 Y105.600 E0.01583
G1 X129.659 Y105.987 E0.01231
G1 X129.529 Y106.472 E0.01573
G1 X129.350 Y106.937 E0.01563
G1 X129.123 Y107.384 E0.01573
G1 X128.912 Y107.715 E0.01231
G1 X128.605 Y108.112 E0.01573
G1 X128.260 Y108.471 E0.01563
G1 X127.877 Y108.795 E0.01572
G1 X127.455 Y109.077 E0.01591
G1 X127.643 Y109.404 F10800.000
G1 F1200.000
G1 X127.382 Y109.554 E0.00945
G1 X126.892 Y109.779 E0.01692
G1 X126.381 Y109.951 E0.01689
G1 X125.964 Y110.049 E0.01343
G1 X125.430 Y110.122 E0.01690
G1 X124.892 Y110.139 E0.01687
